;FLAVOR:Marlin
;TIME:1255
;Filament used: 0.804755m
;Layer height: 0.2
;MINX:116.868
;MINY:116.639
;MINZ:0.2
;MAXX:183.141
;MAXY:183.361
;MAXZ:4.2
;Generated with Cura_SteamEngine 4.9.0
M140 S60
M105
M190 S60
M104 S200
M105
M109 S200
M82 ;absolute extrusion mode
G28 ; home all axes
 M117 Purge extruder
 G92 E0 ; reset extruder
 G1 Z1.0 F3000 ; move z up little to prevent scratching of surface
 G1 X2 Y20 Z0.3 F5000.0 ; move to start-line position
 G1 X2 Y200.0 Z0.3 F1500.0 E15 ; draw 1st line
 G1 X2 Y200.0 Z0.4 F5000.0 ; move to side a little
 G1 X2 Y20 Z0.4 F1500.0 E30 ; draw 2nd line
 G92 E0 ; reset extruder
 G1 Z1.0 F3000 ; move z up little to prevent scratching of surface
G92 E0
G92 E0
G1 F1500 E-2
;LAYER_COUNT:21
;LAYER:0
M107
G0 F6000 X122.755 Y126.799 Z0.2
;TYPE:SKIRT
G1 F1500 E0
G1 F1200 X123.454 Y126.14 E0.03515
G1 X124.282 Y125.485 E0.07377
G1 X125.06 Y124.926 E0.10882
G1 X125.477 Y124.636 E0.12741
G1 X126.187 Y124.161 E0.15866
G1 X126.966 Y123.685 E0.19206
G1 X127.156 Y123.579 E0.20002
G1 X127.682 Y123.303 E0.22175
G1 X128.003 Y123.145 E0.23484
G1 X128.368 Y122.973 E0.2496
G1 X129.1 Y122.644 E0.27897
G1 X129.525 Y122.463 E0.29587
G1 X129.887 Y122.319 E0.31012
G1 X130.467 Y122.1 E0.3328
G1 X130.768 Y121.991 E0.34451
G1 X131.236 Y121.829 E0.36263
G1 X131.556 Y121.723 E0.37497
G1 X131.795 Y121.648 E0.38413
G1 X132.066 Y121.567 E0.39448
G1 X132.497 Y121.443 E0.41089
G1 X135.02 Y120.68 E0.50732
G1 X137.4 Y119.886 E0.59912
G1 X139.72 Y119.038 E0.68949
G1 X141.867 Y118.183 E0.77404
G1 X143.154 Y117.658 E0.82489
G1 X144.139 Y117.307 E0.86315
G1 X144.417 Y117.222 E0.87378
G1 X145.723 Y116.905 E0.92295
G1 X146.036 Y116.848 E0.93459
G1 X147.325 Y116.687 E0.98212
G1 X147.65 Y116.665 E0.99404
G1 X148.429 Y116.639 E1.02255
G1 X148.506 Y116.639 E1.02537
G1 X149.169 Y116.658 E1.04964
G1 X149.395 Y116.671 E1.05792
G1 X150.354 Y116.767 E1.09318
G1 X150.671 Y116.812 E1.10489
G1 X151.748 Y117.017 E1.14501
G1 X151.96 Y117.068 E1.15298
G1 X152.959 Y117.357 E1.19103
G1 X153.228 Y117.448 E1.20142
G1 X153.622 Y117.589 E1.21673
G1 X155.678 Y118.369 E1.29718
G1 X156.831 Y118.814 E1.3424
G1 X159.241 Y119.667 E1.43593
G1 X161.593 Y120.425 E1.52634
G1 X164.002 Y121.128 E1.61815
G1 X166.416 Y121.758 E1.70943
G1 X168.87 Y122.326 E1.80159
G1 X170.12 Y122.578 E1.84824
G1 X170.362 Y122.63 E1.8573
G1 X171.117 Y122.799 E1.8856
G1 X172.234 Y123.108 E1.928
G1 X172.517 Y123.202 E1.93891
G1 X173.747 Y123.691 E1.98734
G1 X173.992 Y123.805 E1.99723
G1 X175.178 Y124.443 E2.0465
G1 X175.376 Y124.565 E2.05501
G1 X176.41 Y125.283 E2.10106
G1 X176.613 Y125.441 E2.11047
G1 X177.575 Y126.28 E2.15717
G1 X177.765 Y126.465 E2.16688
G1 X178.687 Y127.475 E2.21691
G1 X178.848 Y127.674 E2.22628
G1 X179.489 Y128.547 E2.2659
G1 X179.578 Y128.681 E2.27179
G1 X180.124 Y129.592 E2.31064
G1 X180.346 Y130.004 E2.32777
G1 X180.875 Y131.127 E2.37318
G1 X180.967 Y131.353 E2.38211
G1 X181.142 Y131.81 E2.40001
G1 X181.315 Y132.314 E2.41951
G1 X181.379 Y132.516 E2.42726
G1 X181.611 Y133.358 E2.45922
G1 X181.715 Y133.832 E2.47697
G1 X181.849 Y134.51 E2.50225
G1 X181.905 Y134.813 E2.51353
G1 X182.172 Y136.384 E2.57183
G1 X182.261 Y136.96 E2.59315
G1 X182.468 Y138.453 E2.6483
G1 X182.561 Y139.201 E2.67588
G1 X182.72 Y140.656 E2.72943
G1 X182.804 Y141.535 E2.76173
G1 X182.923 Y142.993 E2.81525
G1 X182.977 Y143.799 E2.84481
G1 X182.987 Y143.962 E2.85078
G1 X183.069 Y145.554 E2.9091
G1 X183.104 Y146.509 E2.94407
G1 X183.137 Y148.112 E3.00273
G1 X183.141 Y148.92 E3.03229
G1 X183.118 Y150.791 E3.10075
G1 X183.1 Y151.455 E3.12505
G1 X183.09 Y151.703 E3.13413
G1 X182.991 Y153.646 E3.20531
G1 X182.977 Y153.875 E3.2137
G1 X182.925 Y154.595 E3.24011
G1 X182.801 Y156.054 E3.29368
G1 X182.61 Y158.131 E3.36999
G1 X182.45 Y160.619 E3.46121
G1 X182.391 Y162.369 E3.52527
G1 X182.379 Y162.53 E3.53118
G1 X182.321 Y164.183 E3.59169
G1 X182.299 Y164.594 E3.60675
G1 X182.291 Y164.707 E3.61089
G1 X182.184 Y165.662 E3.64605
G1 X181.997 Y166.604 E3.68119
G1 X181.732 Y167.527 E3.71632
G1 X181.373 Y168.469 E3.7532
G1 X181.233 Y168.793 E3.76612
G1 X180.816 Y169.659 E3.80128
G1 X180.43 Y170.326 E3.82948
G1 X180.161 Y170.757 E3.84807
G1 X179.619 Y171.55 E3.88321
G1 X179.247 Y172.022 E3.9052
G1 X176.802 Y174.964 E4.04515
G1 X176.15 Y175.68 E4.08058
G1 X175.955 Y175.877 E4.09072
G1 X175.086 Y176.67 E4.13376
G1 X174.815 Y176.893 E4.1466
G1 X174.428 Y177.197 E4.16461
G1 X174.182 Y177.382 E4.17587
G1 X172.282 Y178.778 E4.26213
G1 X170.98 Y179.779 E4.32221
G1 X170.497 Y180.133 E4.34412
G1 X170.141 Y180.38 E4.35998
G1 X169.902 Y180.542 E4.37054
G1 X169.435 Y180.849 E4.39099
G1 X168.611 Y181.343 E4.42614
G1 X167.713 Y181.782 E4.46271
G1 X167.209 Y182.002 E4.48283
G1 X166.896 Y182.134 E4.49525
G1 X166.478 Y182.302 E4.51174
G1 X165.203 Y182.729 E4.56093
G1 X165.078 Y182.763 E4.56567
G1 X164.491 Y182.907 E4.58778
G1 X164.14 Y182.983 E4.60092
G1 X163.854 Y183.041 E4.6116
G1 X163.323 Y183.142 E4.63137
G1 X162.373 Y183.282 E4.66651
G1 X161.712 Y183.332 E4.69076
G1 X161.176 Y183.355 E4.71039
G1 X160.77 Y183.361 E4.72524
G1 X160.166 Y183.361 E4.74734
G1 X159.206 Y183.321 E4.78249
G1 X158.521 Y183.243 E4.80772
G1 X157.889 Y183.152 E4.83108
G1 X157.509 Y183.091 E4.84516
G1 X157.077 Y183.014 E4.86121
G1 X155.856 Y182.727 E4.9071
G1 X155.426 Y182.596 E4.92355
G1 X154.886 Y182.42 E4.94433
G1 X152.771 Y181.715 E5.02589
G1 X150.362 Y180.983 E5.11801
G1 X147.91 Y180.311 E5.21102
G1 X145.511 Y179.727 E5.30136
G1 X143.075 Y179.209 E5.39247
G1 X140.595 Y178.751 E5.48474
G1 X138.071 Y178.36 E5.57819
G1 X137.508 Y178.283 E5.59898
G1 X137.18 Y178.233 E5.61112
G1 X136.491 Y178.107 E5.63674
G1 X136.096 Y178.022 E5.65152
G1 X135.657 Y177.918 E5.66803
G1 X134.889 Y177.721 E5.69704
G1 X133.969 Y177.444 E5.73219
G1 X133.336 Y177.203 E5.75697
G1 X133.131 Y177.118 E5.76509
G1 X132.86 Y177.001 E5.77589
G1 X132.385 Y176.787 E5.79495
G1 X131.743 Y176.483 E5.82094
G1 X130.893 Y176.036 E5.85608
G1 X130.058 Y175.503 E5.89232
G1 X129.62 Y175.196 E5.91189
G1 X129.362 Y175.009 E5.92354
G1 X128.903 Y174.668 E5.94446
G1 X128.156 Y174.064 E5.97961
G1 X127.424 Y173.359 E6.01679
G1 X126.935 Y172.845 E6.04275
G1 X126.663 Y172.548 E6.05748
G1 X126.357 Y172.203 E6.07436
G1 X125.75 Y171.459 E6.10949
G1 X125.206 Y170.665 E6.1447
G1 X124.92 Y170.204 E6.16455
G1 X124.708 Y169.842 E6.1799
G1 X124.358 Y169.223 E6.20591
G1 X123.92 Y168.368 E6.24106
G1 X123.546 Y167.455 E6.27716
G1 X123.195 Y166.481 E6.31503
G1 X122.304 Y164.111 E6.40767
G1 X121.924 Y163.191 E6.44409
G1 X121.85 Y162.988 E6.45199
G1 X121.397 Y161.866 E6.49626
G1 X121.273 Y161.544 E6.50888
G1 X121.184 Y161.303 E6.51828
G1 X120.797 Y160.036 E6.56675
G1 X120.702 Y159.646 E6.58144
G1 X120.506 Y158.653 E6.61847
G1 X120.433 Y158.174 E6.6362
G1 X119.999 Y155.603 E6.73159
G1 X119.514 Y153.155 E6.82289
G1 X118.965 Y150.747 E6.91325
G1 X118.023 Y147.178 E7.0483
G1 X117.602 Y145.703 E7.10442
G1 X117.515 Y145.38 E7.11666
G1 X117.359 Y144.766 E7.13984
G1 X117.162 Y143.826 E7.17498
G1 X117.061 Y143.068 E7.20295
G1 X116.96 Y142.054 E7.24023
G1 X116.927 Y141.651 E7.25503
G1 X116.89 Y141.076 E7.27611
G1 X116.868 Y140.116 E7.31124
G1 X116.893 Y139.541 E7.3323
G1 X116.934 Y139.053 E7.35021
G1 X116.99 Y138.515 E7.37
G1 X117.02 Y138.254 E7.37962
G1 X117.123 Y137.444 E7.40949
G1 X117.284 Y136.497 E7.44463
G1 X117.571 Y135.41 E7.48577
G1 X117.868 Y134.474 E7.52169
G1 X117.982 Y134.133 E7.53485
G1 X118.178 Y133.576 E7.55645
G1 X118.535 Y132.684 E7.5916
G1 X118.992 Y131.774 E7.62886
G1 X119.11 Y131.563 E7.6377
G1 X119.291 Y131.251 E7.6509
G1 X119.725 Y130.531 E7.68166
G1 X120.054 Y130.001 E7.70448
G1 X120.494 Y129.344 E7.73341
G1 X120.53 Y129.294 E7.73566
G1 X121.273 Y128.367 E7.77913
G1 X121.41 Y128.213 E7.78667
G1 X121.596 Y128.009 E7.79677
G1 X121.85 Y127.737 E7.81039
G1 X122.28 Y127.286 E7.83318
G1 X122.755 Y126.799 E7.85807
G0 F6000 X123.07 Y127.107
G1 F1200 X123.756 Y126.461 E7.89255
G1 X124.539 Y125.843 E7.92904
G1 X125.488 Y125.163 E7.97176
G1 X125.876 Y124.897 E7.98897
G1 X126.431 Y124.527 E8.01337
G1 X127.18 Y124.069 E8.04549
G1 X127.37 Y123.963 E8.05345
G1 X127.876 Y123.698 E8.07435
G1 X128.197 Y123.54 E8.08744
G1 X128.549 Y123.375 E8.10166
G1 X129.281 Y123.046 E8.13102
G1 X129.562 Y122.924 E8.14223
G1 X129.694 Y122.869 E8.14746
G1 X130.042 Y122.731 E8.16116
G1 X130.622 Y122.512 E8.18384
G1 X130.912 Y122.407 E8.19513
G1 X131.38 Y122.245 E8.21325
G1 X131.688 Y122.143 E8.22512
G1 X131.927 Y122.068 E8.23428
G1 X132.188 Y121.99 E8.24425
G1 X132.671 Y121.851 E8.26263
G1 X135.116 Y121.112 E8.35608
G1 X137.54 Y120.303 E8.44958
G1 X139.865 Y119.453 E8.54015
G1 X142.053 Y118.582 E8.62631
G1 X143.32 Y118.065 E8.67637
G1 X144.267 Y117.728 E8.71315
G1 X144.545 Y117.643 E8.72378
G1 X145.802 Y117.338 E8.77111
G1 X146.115 Y117.281 E8.78275
G1 X147.354 Y117.126 E8.82843
G1 X147.679 Y117.104 E8.84035
G1 X148.429 Y117.079 E8.8678
G1 X148.506 Y117.079 E8.87062
G1 X149.143 Y117.097 E8.89393
G1 X149.369 Y117.11 E8.90222
G1 X150.292 Y117.202 E8.93615
G1 X150.609 Y117.247 E8.94787
G1 X151.645 Y117.445 E8.98646
G1 X151.857 Y117.496 E8.99443
G1 X152.818 Y117.773 E9.03102
G1 X153.087 Y117.864 E9.04141
G1 X153.466 Y118 E9.05615
G1 X155.52 Y118.779 E9.13652
G1 X156.708 Y119.237 E9.1831
G1 X159.098 Y120.083 E9.27586
G1 X161.451 Y120.842 E9.36631
G1 X163.865 Y121.546 E9.45831
G1 X166.347 Y122.194 E9.55216
G1 X168.79 Y122.76 E9.64391
G1 X170.033 Y123.01 E9.6903
G1 X170.266 Y123.059 E9.69901
G1 X171.021 Y123.228 E9.72731
G1 X172.095 Y123.526 E9.76809
G1 X172.378 Y123.62 E9.779
G1 X173.562 Y124.09 E9.82561
G1 X173.807 Y124.204 E9.83549
G1 X174.947 Y124.818 E9.88287
G1 X175.145 Y124.94 E9.89138
G1 X176.14 Y125.631 E9.9357
G1 X176.343 Y125.789 E9.94511
G1 X177.269 Y126.595 E9.99002
G1 X177.459 Y126.78 E9.99972
G1 X178.344 Y127.751 E10.04779
G1 X178.505 Y127.95 E10.05716
G1 X179.122 Y128.791 E10.09532
G1 X179.211 Y128.925 E10.1012
G1 X179.737 Y129.801 E10.13859
G1 X179.959 Y130.213 E10.15571
G1 X180.468 Y131.293 E10.19939
G1 X180.56 Y131.519 E10.20832
G1 X180.73 Y131.962 E10.22568
G1 X180.896 Y132.446 E10.2444
G1 X180.96 Y132.648 E10.25215
G1 X181.183 Y133.459 E10.28292
G1 X181.283 Y133.917 E10.30007
G1 X181.417 Y134.595 E10.32536
G1 X181.471 Y134.887 E10.33622
G1 X181.738 Y136.458 E10.39453
G1 X181.825 Y137.021 E10.41537
G1 X182.052 Y138.664 E10.47605
G1 X182.123 Y139.249 E10.49761
G1 X182.297 Y140.852 E10.5566
G1 X182.365 Y141.571 E10.58302
G1 X182.497 Y143.204 E10.64296
G1 X182.547 Y143.985 E10.6716
G1 X182.637 Y145.741 E10.73593
G1 X182.664 Y146.519 E10.76441
G1 X182.697 Y148.122 E10.82307
G1 X182.701 Y148.921 E10.8523
G1 X182.678 Y150.785 E10.9205
G1 X182.66 Y151.442 E10.94455
G1 X182.651 Y151.681 E10.9533
G1 X182.552 Y153.624 E11.02448
G1 X182.498 Y154.408 E11.05323
G1 X182.487 Y154.558 E11.05873
G1 X182.363 Y156.014 E11.11219
G1 X182.171 Y158.1 E11.18884
G1 X182.012 Y160.577 E11.27965
G1 X181.952 Y162.354 E11.3447
G1 X181.939 Y162.519 E11.35075
G1 X181.881 Y164.167 E11.41108
G1 X181.86 Y164.563 E11.42559
G1 X181.852 Y164.676 E11.42974
G1 X181.746 Y165.612 E11.4642
G1 X181.561 Y166.536 E11.49868
G1 X181.298 Y167.44 E11.53312
G1 X180.969 Y168.295 E11.56664
G1 X180.829 Y168.619 E11.57955
G1 X180.419 Y169.467 E11.61401
G1 X180.056 Y170.093 E11.64049
G1 X179.787 Y170.524 E11.65908
G1 X179.255 Y171.301 E11.69353
G1 X178.909 Y171.741 E11.71401
G1 X176.622 Y174.492 E11.84489
G1 X176.464 Y174.681 E11.85391
G1 X175.837 Y175.371 E11.88802
G1 X175.642 Y175.568 E11.89816
G1 X174.806 Y176.33 E11.93954
G1 X174.535 Y176.553 E11.95238
G1 X174.163 Y176.846 E11.96971
G1 X173.921 Y177.027 E11.98076
G1 X172.037 Y178.411 E12.06629
G1 X170.711 Y179.431 E12.1275
G1 X170.247 Y179.772 E12.14856
G1 X169.891 Y180.019 E12.16442
G1 X169.66 Y180.174 E12.17459
G1 X169.193 Y180.481 E12.19504
G1 X168.385 Y180.965 E12.2295
G1 X167.537 Y181.379 E12.26403
G1 X167.033 Y181.599 E12.28415
G1 X166.731 Y181.725 E12.29612
G1 X166.313 Y181.893 E12.3126
G1 X165.087 Y182.305 E12.35992
G1 X164.962 Y182.339 E12.36466
G1 X164.398 Y182.477 E12.3859
G1 X164.047 Y182.553 E12.39904
G1 X163.772 Y182.608 E12.4093
G1 X163.241 Y182.709 E12.42908
G1 X162.309 Y182.846 E12.46354
G1 X161.691 Y182.893 E12.48622
G1 X161.416 Y182.906 E12.49629
G1 X161.043 Y182.918 E12.50994
G1 X160.77 Y182.921 E12.51993
G1 X160.166 Y182.921 E12.54203
G1 X159.225 Y182.881 E12.57649
G1 X158.584 Y182.808 E12.60009
G1 X157.952 Y182.717 E12.62345
G1 X157.586 Y182.658 E12.63702
G1 X157.154 Y182.581 E12.65307
G1 X155.98 Y182.305 E12.69719
G1 X155.562 Y182.178 E12.71318
G1 X155.025 Y182.003 E12.73384
G1 X152.922 Y181.301 E12.81496
G1 X150.467 Y180.555 E12.90883
G1 X148.057 Y179.895 E13.00025
G1 X145.568 Y179.289 E13.09397
G1 X143.181 Y178.781 E13.18326
G1 X140.664 Y178.316 E13.2769
G1 X138.155 Y177.927 E13.3698
G1 X137.574 Y177.848 E13.39125
G1 X137.246 Y177.798 E13.40339
G1 X136.584 Y177.677 E13.42801
G1 X136.189 Y177.592 E13.44279
G1 X135.766 Y177.492 E13.45869
G1 X134.998 Y177.295 E13.4877
G1 X134.096 Y177.022 E13.52218
G1 X133.505 Y176.797 E13.54532
G1 X133.3 Y176.712 E13.55344
G1 X132.812 Y176.498 E13.57293
G1 X132.574 Y176.389 E13.58251
G1 X131.932 Y176.085 E13.6085
G1 X131.098 Y175.646 E13.64298
G1 X130.311 Y175.143 E13.67715
G1 X129.873 Y174.836 E13.69672
G1 X129.624 Y174.656 E13.70796
G1 X129.165 Y174.315 E13.72888
G1 X128.434 Y173.722 E13.76332
G1 X127.743 Y173.056 E13.79843
G1 X127.254 Y172.542 E13.82439
G1 X126.992 Y172.256 E13.83858
G1 X126.686 Y171.911 E13.85545
G1 X126.091 Y171.181 E13.8899
G1 X125.579 Y170.432 E13.9231
G1 X125.412 Y170.165 E13.93462
G1 X125.228 Y169.861 E13.94762
G1 X125.091 Y169.625 E13.9576
G1 X124.741 Y169.006 E13.98362
G1 X124.312 Y168.167 E14.0181
G1 X123.96 Y167.306 E14.05213
G1 X123.603 Y166.316 E14.09063
G1 X122.712 Y163.946 E14.18327
G1 X122.331 Y163.023 E14.2198
G1 X122.261 Y162.83 E14.22731
G1 X121.805 Y161.701 E14.27186
G1 X121.685 Y161.391 E14.28402
G1 X121.596 Y161.15 E14.29342
G1 X121.224 Y159.932 E14.34001
G1 X121.129 Y159.542 E14.3547
G1 X120.941 Y158.586 E14.39034
G1 X120.868 Y158.107 E14.40807
G1 X120.429 Y155.51 E14.50443
G1 X119.947 Y153.078 E14.59514
G1 X119.39 Y150.633 E14.68689
G1 X118.442 Y147.039 E14.82288
G1 X118.026 Y145.582 E14.87831
G1 X117.942 Y145.271 E14.8901
G1 X117.786 Y144.657 E14.91328
G1 X117.593 Y143.735 E14.94774
G1 X117.499 Y143.024 E14.97398
G1 X117.398 Y142.01 E15.01126
G1 X117.366 Y141.623 E15.02547
G1 X117.329 Y141.048 E15.04655
G1 X117.308 Y140.106 E15.08102
G1 X117.332 Y139.571 E15.10061
G1 X117.372 Y139.099 E15.11794
G1 X117.428 Y138.561 E15.13773
G1 X117.457 Y138.31 E15.14698
G1 X117.56 Y137.5 E15.17685
G1 X117.718 Y136.571 E15.21133
G1 X117.991 Y135.543 E15.25024
G1 X118.288 Y134.607 E15.28617
G1 X118.397 Y134.28 E15.29878
G1 X118.593 Y133.723 E15.32038
G1 X118.943 Y132.848 E15.35486
G1 X119.376 Y131.989 E15.39006
G1 X119.494 Y131.778 E15.3989
G1 X119.668 Y131.478 E15.41159
G1 X120.099 Y130.763 E15.44213
G1 X120.428 Y130.233 E15.46496
G1 X120.851 Y129.601 E15.49278
G1 X120.887 Y129.551 E15.49504
G1 X121.602 Y128.659 E15.53686
G1 X121.917 Y128.309 E15.55409
G1 X122.169 Y128.04 E15.56757
G1 X122.595 Y127.594 E15.59014
G1 X123.07 Y127.107 E15.61503
G0 F6000 X123.385 Y127.414
G1 F1200 X124.057 Y126.781 E15.6488
G1 X124.796 Y126.2 E15.6832
G1 X125.574 Y125.641 E15.71825
G1 X125.977 Y125.361 E15.7362
G1 X126.12 Y125.263 E15.74254
G1 X126.675 Y124.893 E15.76695
G1 X127.394 Y124.454 E15.79777
G1 X127.584 Y124.348 E15.80573
G1 X128.07 Y124.093 E15.82581
G1 X128.391 Y123.935 E15.8389
G1 X128.729 Y123.776 E15.85256
G1 X129.461 Y123.447 E15.88192
G1 X129.863 Y123.275 E15.89792
G1 X130.197 Y123.142 E15.91107
