;FLAVOR:Marlin
;TIME:1091
;Filament used: 0.943126m
;Layer height: 0.2
;MINX:116.769
;MINY:121.869
;MINZ:0.2
;MAXX:183.231
;MAXY:178.121
;MAXZ:6.4
;Generated with Cura_SteamEngine 4.9.0
M140 S60
M105
M190 S60
M104 S200
M105
M109 S200
M82 ;absolute extrusion mode
G28 ; home all axes
 M117 Purge extruder
 G92 E0 ; reset extruder
 G1 Z1.0 F3000 ; move z up little to prevent scratching of surface
 G1 X2 Y20 Z0.3 F5000.0 ; move to start-line position
 G1 X2 Y200.0 Z0.3 F1500.0 E15 ; draw 1st line
 G1 X2 Y200.0 Z0.4 F5000.0 ; move to side a little
 G1 X2 Y20 Z0.4 F1500.0 E30 ; draw 2nd line
 G92 E0 ; reset extruder
 G1 Z1.0 F3000 ; move z up little to prevent scratching of surface
G92 E0
G92 E0
G1 F1500 E-2
;LAYER_COUNT:32
;LAYER:0
M107
G0 F6000 X126.206 Y129.422 Z0.2
;TYPE:SKIRT
G1 F1500 E0
G1 F1200 X126.9 Y128.757 E0.03517
G1 X127.646 Y128.153 E0.07028
G1 X128.314 Y127.692 E0.09998
G1 X128.902 Y127.316 E0.12551
G1 X129.2 Y127.132 E0.13833
G1 X129.677 Y126.847 E0.15866
G1 X129.975 Y126.675 E0.17124
G1 X130.728 Y126.255 E0.20279
G1 X131.064 Y126.074 E0.21675
G1 X131.493 Y125.853 E0.23441
G1 X131.811 Y125.696 E0.24738
G1 X132.612 Y125.314 E0.27985
G1 X132.95 Y125.159 E0.29345
G1 X133.425 Y124.951 E0.31243
G1 X133.719 Y124.827 E0.3241
G1 X134.474 Y124.521 E0.35391
G1 X134.784 Y124.401 E0.36607
G1 X135.359 Y124.187 E0.38851
G1 X135.687 Y124.07 E0.40125
G1 X136.305 Y123.861 E0.42512
G1 X136.612 Y123.762 E0.43692
G1 X137.318 Y123.545 E0.46395
G1 X137.616 Y123.458 E0.4753
G1 X138.159 Y123.307 E0.49592
G1 X138.471 Y123.225 E0.50773
G1 X139.305 Y123.018 E0.53917
G1 X139.579 Y122.953 E0.54947
G1 X140.024 Y122.854 E0.56615
G1 X140.294 Y122.798 E0.57624
G1 X141.251 Y122.609 E0.61193
G1 X141.607 Y122.544 E0.62517
G1 X141.94 Y122.492 E0.6375
G1 X143.692 Y122.244 E0.70223
G1 X144.155 Y122.188 E0.7193
G1 X145.449 Y122.058 E0.76688
G1 X145.877 Y122.023 E0.78259
G1 X147.304 Y121.933 E0.8349
G1 X147.679 Y121.915 E0.84864
G1 X148.995 Y121.875 E0.89681
G1 X149.337 Y121.87 E0.90932
G1 X150.693 Y121.869 E0.95893
G1 X151.001 Y121.873 E0.9702
G1 X152.275 Y121.906 E1.01683
G1 X152.628 Y121.92 E1.02975
G1 X154.007 Y121.998 E1.08028
G1 X154.406 Y122.028 E1.09492
G1 X155.959 Y122.17 E1.15198
G1 X156.347 Y122.212 E1.16626
G1 X157.254 Y122.326 E1.1997
G1 X157.552 Y122.367 E1.21071
G1 X157.841 Y122.411 E1.2214
G1 X158.888 Y122.587 E1.26025
G1 X159.205 Y122.644 E1.27203
G1 X159.661 Y122.734 E1.28903
G1 X160.661 Y122.95 E1.32646
G1 X160.981 Y123.024 E1.33848
G1 X161.506 Y123.154 E1.35827
G1 X161.785 Y123.227 E1.36882
G1 X162.39 Y123.393 E1.39177
G1 X162.705 Y123.485 E1.40378
G1 X163.439 Y123.709 E1.43186
G1 X163.766 Y123.814 E1.44442
G1 X164.192 Y123.958 E1.46087
G1 X164.538 Y124.081 E1.47431
G1 X165.418 Y124.41 E1.50868
G1 X165.731 Y124.532 E1.52097
G1 X166.055 Y124.664 E1.53377
G1 X166.447 Y124.832 E1.54937
G1 X167.38 Y125.253 E1.58682
G1 X167.688 Y125.398 E1.59928
G1 X168.195 Y125.645 E1.61991
G1 X168.51 Y125.804 E1.63282
G1 X168.803 Y125.958 E1.64493
G1 X169.105 Y126.122 E1.6575
G1 X169.529 Y126.363 E1.67535
G1 X170.114 Y126.703 E1.7001
G1 X170.428 Y126.892 E1.71351
G1 X170.721 Y127.075 E1.72615
G1 X170.985 Y127.245 E1.73764
G1 X171.401 Y127.522 E1.75592
G1 X171.991 Y127.926 E1.78209
G1 X172.76 Y128.502 E1.81724
G1 X173.479 Y129.139 E1.85238
G1 X174.142 Y129.834 E1.88752
G1 X174.746 Y130.581 E1.92267
G1 X175.285 Y131.376 E1.95781
G1 X175.756 Y132.214 E1.99298
G1 X176.155 Y133.087 E2.0281
G1 X176.481 Y133.991 E2.06326
G1 X176.73 Y134.919 E2.09841
G1 X176.913 Y135.947 E2.13661
G1 X176.967 Y136.413 E2.15377
G1 X177.011 Y136.873 E2.17068
G1 X177.289 Y139.393 E2.26344
G1 X177.631 Y141.858 E2.35449
G1 X178.051 Y144.357 E2.4472
G1 X178.533 Y146.805 E2.53848
G1 X179.073 Y149.189 E2.62791
G1 X179.71 Y151.679 E2.72194
G1 X180.249 Y153.581 E2.79427
G1 X180.332 Y153.863 E2.80503
G1 X180.822 Y155.471 E2.86653
G1 X180.954 Y155.895 E2.88277
G1 X181.458 Y157.453 E2.94268
G1 X181.679 Y158.118 E2.96832
G1 X182.086 Y159.315 E3.01458
G1 X182.402 Y160.227 E3.04989
G1 X182.644 Y160.956 E3.07799
G1 X182.909 Y161.88 E3.11316
G1 X183.095 Y162.822 E3.14829
G1 X183.203 Y163.777 E3.18345
G1 X183.231 Y164.737 E3.21859
G1 X183.179 Y165.696 E3.25373
G1 X183.047 Y166.648 E3.28889
G1 X182.837 Y167.585 E3.32402
G1 X182.55 Y168.502 E3.35918
G1 X182.187 Y169.391 E3.39431
G1 X181.751 Y170.247 E3.42946
G1 X181.246 Y171.064 E3.4646
G1 X180.675 Y171.837 E3.49976
G1 X180.041 Y172.559 E3.53491
G1 X179.35 Y173.225 E3.57002
G1 X178.605 Y173.832 E3.60518
G1 X177.812 Y174.375 E3.64034
G1 X176.978 Y174.85 E3.67546
G1 X176.106 Y175.254 E3.71062
G1 X175.204 Y175.585 E3.74577
G1 X174.278 Y175.839 E3.7809
G1 X173.333 Y176.015 E3.81607
G1 X172.377 Y176.112 E3.85123
G1 X171.657 Y176.132 E3.87758
G1 X170.37 Y176.128 E3.92466
G1 X167.824 Y176.155 E4.01782
G1 X165.333 Y176.253 E4.10902
G1 X162.796 Y176.425 E4.20206
G1 X160.331 Y176.661 E4.29265
G1 X157.845 Y176.971 E4.38431
G1 X155.417 Y177.344 E4.47418
G1 X153.852 Y177.635 E4.53242
G1 X152.38 Y177.894 E4.58711
G1 X151.856 Y177.974 E4.6065
G1 X151.383 Y178.035 E4.62395
G1 X150.426 Y178.118 E4.65909
G1 X149.451 Y178.121 E4.69476
G1 X149.274 Y178.114 E4.70124
G1 X148.706 Y178.077 E4.72207
G1 X148.212 Y178.033 E4.74021
G1 X147.231 Y177.903 E4.77642
G1 X146.692 Y177.807 E4.79645
G1 X144.878 Y177.462 E4.86401
G1 X142.402 Y177.064 E4.95576
G1 X139.891 Y176.732 E5.04842
G1 X137.442 Y176.478 E5.1385
G1 X134.908 Y176.288 E5.23147
G1 X132.472 Y176.175 E5.32069
G1 X128.912 Y176.129 E5.45095
G1 X128.383 Y176.132 E5.4703
G1 X127.423 Y176.098 E5.50545
G1 X126.469 Y175.984 E5.5406
G1 X125.528 Y175.792 E5.57574
G1 X124.606 Y175.522 E5.61089
G1 X123.71 Y175.176 E5.64603
G1 X122.845 Y174.757 E5.68119
G1 X122.019 Y174.267 E5.71633
G1 X121.236 Y173.71 E5.75149
G1 X120.502 Y173.09 E5.78664
G1 X119.822 Y172.412 E5.82177
G1 X119.201 Y171.679 E5.85692
G1 X118.643 Y170.897 E5.89206
G1 X118.153 Y170.071 E5.9272
G1 X117.732 Y169.207 E5.96237
G1 X117.385 Y168.312 E5.99749
G1 X117.113 Y167.39 E6.03265
G1 X116.919 Y166.449 E6.06781
G1 X116.804 Y165.496 E6.10293
G1 X116.769 Y164.536 E6.13807
G1 X116.814 Y163.576 E6.17323
G1 X116.938 Y162.623 E6.20839
G1 X117.141 Y161.685 E6.24351
G1 X117.352 Y160.97 E6.27078
G1 X117.649 Y160.076 E6.30525
G1 X117.913 Y159.315 E6.33472
G1 X118.355 Y158.014 E6.38499
G1 X118.577 Y157.343 E6.41084
G1 X119.011 Y155.999 E6.46252
G1 X119.184 Y155.448 E6.48365
G1 X119.75 Y153.581 E6.55502
G1 X119.817 Y153.351 E6.56379
G1 X120.503 Y150.87 E6.65796
G1 X121.106 Y148.422 E6.7502
G1 X121.644 Y145.951 E6.84273
G1 X122.097 Y143.522 E6.93313
G1 X122.489 Y141.045 E7.02488
G1 X122.81 Y138.565 E7.11637
G1 X122.979 Y136.965 E7.17523
G1 X123.047 Y136.275 E7.2006
G1 X123.182 Y135.323 E7.23578
G1 X123.395 Y134.387 E7.2709
G1 X123.685 Y133.471 E7.30605
G1 X124.051 Y132.583 E7.34119
G1 X124.489 Y131.728 E7.37634
G1 X124.997 Y130.912 E7.4115
G1 X125.571 Y130.142 E7.44664
G1 X126.206 Y129.422 E7.48176
G0 F6000 X126.625 Y129.623
G1 F1200 X127.314 Y128.98 E7.51624
G1 X128.055 Y128.399 E7.55069
G1 X128.551 Y128.062 E7.57263
G1 X129.139 Y127.686 E7.59817
G1 X129.426 Y127.509 E7.6105
G1 X129.903 Y127.224 E7.63083
G1 X130.189 Y127.059 E7.64291
G1 X130.942 Y126.639 E7.67446
G1 X131.266 Y126.465 E7.68791
G1 X131.695 Y126.244 E7.70557
G1 X132 Y126.093 E7.71802
G1 X132.801 Y125.711 E7.75049
G1 X133.127 Y125.562 E7.7636
G1 X133.602 Y125.354 E7.78257
G1 X133.885 Y125.235 E7.7938
G1 X134.64 Y124.929 E7.82361
G1 X134.937 Y124.813 E7.83528
G1 X135.512 Y124.599 E7.85772
G1 X135.828 Y124.487 E7.86999
G1 X136.446 Y124.278 E7.89386
G1 X136.741 Y124.183 E7.9052
G1 X137.447 Y123.966 E7.93222
G1 X137.734 Y123.882 E7.94316
G1 X138.277 Y123.731 E7.96378
G1 X138.577 Y123.652 E7.97513
G1 X139.411 Y123.445 E8.00657
G1 X139.674 Y123.383 E8.01645
G1 X140.119 Y123.284 E8.03313
G1 X140.379 Y123.229 E8.04285
G1 X141.336 Y123.04 E8.07854
G1 X141.682 Y122.978 E8.0914
G1 X142.001 Y122.928 E8.10322
G1 X143.753 Y122.68 E8.16796
G1 X144.199 Y122.626 E8.18439
G1 X145.493 Y122.496 E8.23197
G1 X145.904 Y122.462 E8.24706
G1 X147.331 Y122.372 E8.29937
G1 X147.693 Y122.355 E8.31263
G1 X149.009 Y122.315 E8.3608
G1 X149.338 Y122.31 E8.37284
G1 X150.694 Y122.309 E8.42245
G1 X150.989 Y122.313 E8.43324
G1 X152.263 Y122.346 E8.47987
G1 X152.603 Y122.36 E8.49232
G1 X153.982 Y122.438 E8.54285
G1 X154.366 Y122.466 E8.55694
G1 X155.919 Y122.608 E8.614
G1 X156.292 Y122.649 E8.62772
G1 X157.199 Y122.763 E8.66117
G1 X157.486 Y122.802 E8.67177
G1 X157.949 Y122.874 E8.68891
G1 X158.815 Y123.02 E8.72104
G1 X159.119 Y123.076 E8.73235
G1 X159.575 Y123.166 E8.74935
G1 X159.787 Y123.21 E8.75728
G1 X160.568 Y123.38 E8.78652
G1 X160.875 Y123.451 E8.79805
G1 X161.4 Y123.581 E8.81783
G1 X161.669 Y123.652 E8.82801
G1 X162.274 Y123.818 E8.85097
G1 X162.577 Y123.905 E8.8625
G1 X163.311 Y124.129 E8.89058
G1 X163.626 Y124.231 E8.90269
G1 X164.052 Y124.375 E8.91914
G1 X164.384 Y124.493 E8.93203
G1 X165.264 Y124.822 E8.96641
G1 X165.565 Y124.939 E8.97822
G1 X165.889 Y125.071 E8.99102
G1 X166.266 Y125.233 E9.00603
G1 X167.199 Y125.654 E9.04348
G1 X167.495 Y125.793 E9.05545
G1 X168.002 Y126.04 E9.07608
G1 X168.305 Y126.193 E9.0885
G1 X168.598 Y126.347 E9.10061
G1 X168.888 Y126.505 E9.11269
G1 X169.308 Y126.743 E9.13035
G1 X169.893 Y127.083 E9.15511
G1 X170.195 Y127.265 E9.16801
G1 X170.488 Y127.448 E9.18065
G1 X170.742 Y127.612 E9.19171
G1 X171.152 Y127.885 E9.20973
G1 X171.742 Y128.289 E9.23589
G1 X172.496 Y128.854 E9.27036
G1 X173.2 Y129.481 E9.30485
G1 X173.848 Y130.165 E9.33933
G1 X174.435 Y130.902 E9.3738
G1 X174.958 Y131.685 E9.40825
G1 X175.412 Y132.511 E9.44273
G1 X175.795 Y133.371 E9.47717
G1 X176.104 Y134.262 E9.51168
G1 X176.336 Y135.175 E9.54614
G1 X176.477 Y136.005 E9.57694
G1 X176.529 Y136.455 E9.59352
G1 X176.571 Y136.892 E9.60958
G1 X176.851 Y139.434 E9.70314
G1 X177.2 Y141.948 E9.796
G1 X177.614 Y144.414 E9.88749
G1 X178.107 Y146.914 E9.98071
G1 X178.645 Y149.29 E10.06984
G1 X179.295 Y151.828 E10.1657
G1 X179.827 Y153.708 E10.23718
G1 X179.911 Y153.991 E10.24798
G1 X180.376 Y155.517 E10.30634
G1 X180.557 Y156.095 E10.3285
G1 X181.06 Y157.648 E10.38823
G1 X181.263 Y158.26 E10.41182
G1 X181.671 Y159.46 E10.45819
G1 X181.985 Y160.366 E10.49327
G1 X182.227 Y161.095 E10.52137
G1 X182.485 Y162.001 E10.55584
G1 X182.666 Y162.925 E10.59029
G1 X182.768 Y163.862 E10.62477
G1 X182.79 Y164.804 E10.65924
G1 X182.732 Y165.744 E10.6937
G1 X182.595 Y166.676 E10.72816
G1 X182.379 Y167.593 E10.76263
G1 X182.086 Y168.489 E10.79712
G1 X181.718 Y169.356 E10.83158
G1 X181.278 Y170.189 E10.86605
G1 X180.768 Y170.982 E10.90054
G1 X180.194 Y171.728 E10.93498
G1 X179.558 Y172.424 E10.96947
G1 X178.866 Y173.062 E11.00391
G1 X178.121 Y173.64 E11.03841
G1 X177.331 Y174.153 E11.07287
G1 X176.5 Y174.597 E11.10734
G1 X175.634 Y174.968 E11.14181
G1 X174.74 Y175.265 E11.17628
G1 X173.824 Y175.485 E11.21074
G1 X172.893 Y175.627 E11.2452
G1 X171.659 Y175.692 E11.29041
G1 X170.367 Y175.688 E11.33768
G1 X167.803 Y175.715 E11.43149
G1 X165.323 Y175.813 E11.52229
G1 X162.759 Y175.986 E11.61631
G1 X160.306 Y176.221 E11.70647
G1 X157.791 Y176.535 E11.7992
G1 X155.307 Y176.916 E11.89114
G1 X153.776 Y177.202 E11.94812
G1 X152.304 Y177.461 E12.00281
G1 X151.8 Y177.538 E12.02146
G1 X151.327 Y177.599 E12.03891
G1 X150.388 Y177.68 E12.07339
G1 X149.468 Y177.681 E12.10705
G1 X149.291 Y177.674 E12.11353
G1 X148.745 Y177.639 E12.13355
G1 X148.251 Y177.595 E12.15169
G1 X147.307 Y177.47 E12.18653
G1 X146.774 Y177.375 E12.20634
G1 X144.958 Y177.03 E12.27397
G1 X142.458 Y176.627 E12.36661
G1 X139.961 Y176.298 E12.45876
G1 X137.449 Y176.037 E12.55116
G1 X134.963 Y175.851 E12.64237
G1 X132.468 Y175.735 E12.73375
G1 X128.915 Y175.689 E12.86375
G1 X128.38 Y175.692 E12.88332
G1 X127.438 Y175.658 E12.91781
G1 X126.503 Y175.544 E12.95227
G1 X125.581 Y175.352 E12.98673
G1 X124.678 Y175.081 E13.02122
G1 X123.802 Y174.736 E13.05566
G1 X122.958 Y174.317 E13.09014
G1 X122.153 Y173.828 E13.1246
G1 X121.392 Y173.273 E13.15906
G1 X120.68 Y172.655 E13.19355
G1 X120.024 Y171.979 E13.22801
G1 X119.427 Y171.25 E13.26249
G1 X118.895 Y170.473 E13.29694
G1 X118.43 Y169.653 E13.33143
G1 X118.036 Y168.797 E13.36591
G1 X117.717 Y167.911 E13.40036
G1 X117.474 Y167.001 E13.43482
G1 X117.308 Y166.073 E13.46931
G1 X117.222 Y165.135 E13.50377
G1 X117.216 Y164.193 E13.53824
G1 X117.29 Y163.254 E13.5727
G1 X117.443 Y162.324 E13.60718
G1 X117.77 Y161.108 E13.65325
G1 X118.065 Y160.22 E13.68748
G1 X118.336 Y159.44 E13.71769
G1 X118.772 Y158.156 E13.7673
G1 X118.995 Y157.482 E13.79328
G1 X119.438 Y156.109 E13.84606
G1 X119.578 Y155.663 E13.86316
G1 X120.155 Y153.759 E13.93595
G1 X120.245 Y153.452 E13.94766
G1 X120.928 Y150.986 E14.04127
G1 X121.539 Y148.506 E14.13472
G1 X122.072 Y146.059 E14.22635
G1 X122.529 Y143.6 E14.31785
G1 X122.925 Y141.098 E14.41053
G1 X123.25 Y138.587 E14.50316
G1 X123.409 Y137.084 E14.55846
G1 X123.485 Y136.318 E14.58662
G1 X123.618 Y135.385 E14.6211
G1 X123.829 Y134.467 E14.65556
G1 X124.118 Y133.57 E14.69004
G1 X124.481 Y132.701 E14.7245
G1 X124.917 Y131.866 E14.75896
G1 X125.422 Y131.071 E14.79342
G1 X125.993 Y130.321 E14.82791
G1 X126.625 Y129.623 E14.86236
G0 F6000 X127.043 Y129.827
G1 F1200 X127.728 Y129.207 E14.89616
G1 X128.788 Y128.433 E14.94418
G1 X129.376 Y128.057 E14.96971
G1 X129.651 Y127.887 E14.98154
G1 X130.128 Y127.602 E15.00187
G1 X130.403 Y127.443 E15.01349
G1 X131.156 Y127.023 E15.04504
G1 X131.467 Y126.857 E15.05794
G1 X131.896 Y126.636 E15.07559
G1 X132.189 Y126.49 E15.08757
G1 X132.99 Y126.108 E15.12004
G1 X133.303 Y125.965 E15.13263
G1 X133.778 Y125.757 E15.1516
G1 X134.05 Y125.643 E15.16239
G1 X134.805 Y125.337 E15.19219
G1 X135.091 Y125.225 E15.20343
G1 X135.666 Y125.011 E15.22588
G1 X135.969 Y124.904 E15.23763
G1 X136.587 Y124.695 E15.2615
G1 X136.87 Y124.603 E15.27239
G1 X137.576 Y124.386 E15.29941
G1 X137.852 Y124.306 E15.30993
G1 X138.395 Y124.155 E15.33055
G1 X138.683 Y124.079 E15.34144
G1 X139.517 Y123.872 E15.37288
G1 X139.77 Y123.812 E15.38239
G1 X140.215 Y123.713 E15.39907
G1 X140.465 Y123.661 E15.40842
G1 X141.422 Y123.472 E15.4441
G1 X141.756 Y123.411 E15.45653
G1 X142.063 Y123.363 E15.4679
G1 X143.815 Y123.115 E15.53263
G1 X144.243 Y123.063 E15.54841
G1 X145.537 Y122.933 E15.59599
G1 X145.932 Y122.901 E15.61049
G1 X147.359 Y122.811 E15.6628
G1 X147.706 Y122.795 E15.67551
G1 X149.022 Y122.755 E15.72368
G1 X149.338 Y122.75 E15.73524
G1 X150.694 Y122.749 E15.78485
G1 X150.978 Y122.753 E15.79524
G1 X152.252 Y122.786 E15.84187
G1 X152.578 Y122.799 E15.85381
G1 X153.957 Y122.877 E15.90434
G1 X154.326 Y122.904 E15.91787
G1 X155.879 Y123.046 E15.97493
G1 X156.237 Y123.085 E15.98811
G1 X157.144 Y123.199 E16.02155
G1 X157.419 Y123.237 E16.03171
G1 X157.876 Y123.308 E16.04863
G1 X158.742 Y123.454 E16.08076
G1 X159.034 Y123.508 E16.09162
G1 X159.693 Y123.64 E16.11621
G1 X160.474 Y123.81 E16.14545
G1 X160.769 Y123.879 E16.15654
G1 X161.294 Y124.009 E16.17633
G1 X161.553 Y124.076 E16.18611
G1 X162.158 Y124.242 E16.20907
G1 X162.449 Y124.326 E16.22015
G1 X163.183 Y124.55 E16.24823
G1 X163.485 Y124.647 E16.25983
G1 X163.911 Y124.791 E16.27628
G1 X164.23 Y124.905 E16.28868
G1 X165.11 Y125.234 E16.32305
G1 X165.399 Y125.347 E16.3344
G1 X165.723 Y125.479 E16.3472
G1 X166.085 Y125.634 E16.36161
G1 X167.018 Y126.055 E16.39906
G1 X167.303 Y126.189 E16.41058
G1 X167.81 Y126.436 E16.43121
G1 X168.101 Y126.583 E16.44314
G1 X168.394 Y126.737 E16.45525
G1 X168.672 Y126.889 E16.46684
G1 X169.087 Y127.124 E16.48429
G1 X169.672 Y127.464 E16.50905
G1 X169.962 Y127.639 E16.52144
G1 X170.255 Y127.822 E16.53408
G1 X170.499 Y127.978 E16.54467
