;FLAVOR:Marlin
;TIME:1710
;Filament used: 1.18857m
;Layer height: 0.2
;MINX:92.763
;MINY:114.985
;MINZ:0.2
;MAXX:207.246
;MAXY:185.018
;MAXZ:6
;Generated with Cura_SteamEngine 4.9.0
M140 S60
M105
M190 S60
M104 S200
M105
M109 S200
M82 ;absolute extrusion mode
G28 ; home all axes
 M117 Purge extruder
 G92 E0 ; reset extruder
 G1 Z1.0 F3000 ; move z up little to prevent scratching of surface
 G1 X2 Y20 Z0.3 F5000.0 ; move to start-line position
 G1 X2 Y200.0 Z0.3 F1500.0 E15 ; draw 1st line
 G1 X2 Y200.0 Z0.4 F5000.0 ; move to side a little
 G1 X2 Y20 Z0.4 F1500.0 E30 ; draw 2nd line
 G92 E0 ; reset extruder
 G1 Z1.0 F3000 ; move z up little to prevent scratching of surface
G92 E0
G92 E0
G1 F1500 E-2
;LAYER_COUNT:30
;LAYER:0
M107
G0 F6000 X99.846 Y124.848 Z0.2
;TYPE:SKIRT
G1 F1500 E0
G1 F1200 X100.359 Y124.436 E0.02407
G1 X100.536 Y124.302 E0.03219
G1 X100.951 Y124 E0.05097
G1 X101.803 Y123.399 E0.08912
G1 X102.508 Y122.917 E0.12036
G1 X103.619 Y122.247 E0.16783
G1 X104.054 Y122.017 E0.18583
G1 X104.355 Y121.864 E0.19819
G1 X104.721 Y121.684 E0.21311
G1 X105.333 Y121.405 E0.23772
G1 X105.651 Y121.271 E0.25034
G1 X105.998 Y121.131 E0.26403
G1 X106.991 Y120.75 E0.30294
G1 X107.409 Y120.599 E0.3192
G1 X108.485 Y120.233 E0.36079
G1 X108.847 Y120.116 E0.3747
G1 X110.121 Y119.729 E0.42342
G1 X111.004 Y119.473 E0.45705
G1 X113.416 Y118.701 E0.54971
G1 X115.759 Y117.877 E0.64058
G1 X118.136 Y116.965 E0.73372
G1 X120.293 Y116.07 E0.81916
G1 X121.163 Y115.749 E0.85309
G1 X121.265 Y115.716 E0.85701
G1 X121.693 Y115.587 E0.87337
G1 X121.981 Y115.506 E0.88431
G1 X122.982 Y115.272 E0.92192
G1 X123.169 Y115.237 E0.92889
G1 X123.5 Y115.18 E0.94117
G1 X123.729 Y115.144 E0.94965
G1 X124.775 Y115.028 E0.98816
G1 X125.099 Y115.007 E1.00004
G1 X126.059 Y114.985 E1.03517
G1 X126.617 Y115.009 E1.0556
G1 X126.96 Y115.032 E1.06818
G1 X127.696 Y115.105 E1.09524
G1 X128.174 Y115.168 E1.11288
G1 X128.886 Y115.285 E1.13928
G1 X129.446 Y115.397 E1.16017
G1 X129.61 Y115.433 E1.16631
G1 X130.005 Y115.527 E1.18117
G1 X130.909 Y115.759 E1.21532
G1 X133.341 Y116.345 E1.30684
G1 X135.84 Y116.873 E1.40029
G1 X138.294 Y117.316 E1.49152
G1 X140.73 Y117.687 E1.58167
G1 X143.253 Y117.999 E1.67468
G1 X145.725 Y118.234 E1.76553
G1 X148.188 Y118.398 E1.85584
G1 X150.751 Y118.496 E1.94968
G1 X153.208 Y118.52 E2.03958
G1 X155.737 Y118.474 E2.13212
G1 X158.19 Y118.359 E2.22196
G1 X160.726 Y118.168 E2.31501
G1 X163.224 Y117.91 E2.40689
G1 X165.689 Y117.584 E2.49786
G1 X168.173 Y117.183 E2.58991
G1 X169.938 Y116.856 E2.65559
G1 X170.648 Y116.747 E2.68187
G1 X170.994 Y116.705 E2.69462
G1 X171.977 Y116.628 E2.73069
G1 X172.203 Y116.62 E2.73897
G1 X173.274 Y116.632 E2.77815
G1 X173.5 Y116.645 E2.78644
G1 X174.459 Y116.741 E2.8217
G1 X174.776 Y116.786 E2.83341
G1 X175.853 Y116.991 E2.87352
G1 X176.065 Y117.042 E2.8815
G1 X177.064 Y117.331 E2.91955
G1 X177.333 Y117.422 E2.92994
G1 X177.727 Y117.563 E2.94525
G1 X179.783 Y118.343 E3.0257
G1 X180.936 Y118.788 E3.07092
G1 X183.346 Y119.641 E3.16445
G1 X185.698 Y120.399 E3.25486
G1 X188.107 Y121.102 E3.34667
G1 X190.521 Y121.732 E3.43795
G1 X192.975 Y122.3 E3.5301
G1 X194.225 Y122.552 E3.57676
G1 X194.467 Y122.604 E3.58581
G1 X195.222 Y122.773 E3.61412
G1 X196.339 Y123.082 E3.65652
G1 X196.622 Y123.176 E3.66743
G1 X197.852 Y123.665 E3.71586
G1 X198.097 Y123.779 E3.72574
G1 X199.283 Y124.417 E3.77501
G1 X199.481 Y124.539 E3.78352
G1 X200.515 Y125.257 E3.82958
G1 X200.718 Y125.415 E3.83899
G1 X201.68 Y126.254 E3.88569
G1 X201.87 Y126.439 E3.89539
G1 X202.81 Y127.471 E3.94647
G1 X202.975 Y127.676 E3.95609
G1 X203.598 Y128.528 E3.99471
G1 X203.683 Y128.656 E4.00033
G1 X204.229 Y129.566 E4.03916
G1 X204.451 Y129.978 E4.05628
G1 X204.98 Y131.101 E4.1017
G1 X205.072 Y131.327 E4.11062
G1 X205.247 Y131.784 E4.12853
G1 X205.42 Y132.288 E4.14802
G1 X205.484 Y132.49 E4.15578
G1 X205.716 Y133.332 E4.18773
G1 X205.818 Y133.797 E4.20515
G1 X205.943 Y134.427 E4.22864
G1 X206 Y134.734 E4.24007
G1 X206.301 Y136.506 E4.30583
G1 X206.365 Y136.927 E4.32141
G1 X206.593 Y138.584 E4.3826
G1 X206.667 Y139.184 E4.40472
G1 X206.825 Y140.631 E4.45797
G1 X206.909 Y141.509 E4.49024
G1 X207.028 Y142.967 E4.54376
G1 X207.082 Y143.773 E4.57332
G1 X207.092 Y143.936 E4.57929
G1 X207.174 Y145.528 E4.63762
G1 X207.209 Y146.483 E4.67258
G1 X207.242 Y148.086 E4.73124
G1 X207.246 Y148.894 E4.7608
G1 X207.223 Y150.765 E4.82926
G1 X207.205 Y151.429 E4.85356
G1 X207.195 Y151.677 E4.86264
G1 X207.096 Y153.62 E4.93382
G1 X207.083 Y153.84 E4.94188
G1 X207.033 Y154.533 E4.9673
G1 X206.906 Y156.028 E5.0222
G1 X206.715 Y158.104 E5.09847
G1 X206.555 Y160.586 E5.18947
G1 X206.496 Y162.343 E5.25378
G1 X206.484 Y162.504 E5.25969
G1 X206.426 Y164.157 E5.3202
G1 X206.404 Y164.568 E5.33526
G1 X206.396 Y164.681 E5.33941
G1 X206.289 Y165.636 E5.37457
G1 X206.102 Y166.578 E5.4097
G1 X205.837 Y167.501 E5.44484
G1 X205.478 Y168.443 E5.48172
G1 X205.338 Y168.767 E5.49463
G1 X204.921 Y169.633 E5.5298
G1 X204.535 Y170.3 E5.55799
G1 X204.266 Y170.731 E5.57658
G1 X203.724 Y171.524 E5.61172
G1 X203.352 Y171.996 E5.63371
G1 X200.902 Y174.943 E5.77392
G1 X200.277 Y175.63 E5.8079
G1 X200.079 Y175.831 E5.81822
G1 X199.191 Y176.644 E5.86227
G1 X198.92 Y176.867 E5.87511
G1 X198.533 Y177.171 E5.89312
G1 X198.287 Y177.356 E5.90438
G1 X196.385 Y178.754 E5.99074
G1 X195.085 Y179.753 E6.05072
G1 X194.602 Y180.107 E6.07263
G1 X194.246 Y180.354 E6.08849
G1 X194.007 Y180.516 E6.09905
G1 X193.54 Y180.823 E6.1195
G1 X192.716 Y181.317 E6.15465
G1 X191.818 Y181.756 E6.19122
G1 X191.314 Y181.976 E6.21134
G1 X191.001 Y182.108 E6.22376
G1 X190.583 Y182.276 E6.24025
G1 X189.308 Y182.703 E6.28944
G1 X189.183 Y182.737 E6.29418
G1 X188.596 Y182.881 E6.31629
G1 X188.245 Y182.957 E6.32943
G1 X187.975 Y183.012 E6.33951
G1 X187.448 Y183.113 E6.35914
G1 X186.498 Y183.254 E6.39428
G1 X185.813 Y183.306 E6.41941
G1 X185.281 Y183.329 E6.4389
G1 X184.875 Y183.335 E6.45375
G1 X184.271 Y183.335 E6.47585
G1 X183.311 Y183.295 E6.511
G1 X182.631 Y183.218 E6.53604
G1 X181.997 Y183.127 E6.55947
G1 X181.634 Y183.069 E6.57292
G1 X180.777 Y182.918 E6.60476
G1 X178.27 Y182.513 E6.69767
G1 X175.795 Y182.185 E6.78901
G1 X173.277 Y181.923 E6.88164
G1 X170.805 Y181.737 E6.97233
G1 X168.321 Y181.621 E7.06331
G1 X165.782 Y181.574 E7.15622
G1 X163.332 Y181.597 E7.24586
G1 X160.794 Y181.694 E7.33878
G1 X158.312 Y181.859 E7.42979
G1 X155.803 Y182.096 E7.52199
G1 X153.323 Y182.403 E7.61342
G1 X150.866 Y182.776 E7.70434
G1 X148.378 Y183.228 E7.79686
G1 X145.962 Y183.737 E7.88719
G1 X143.852 Y184.25 E7.96664
G1 X142.199 Y184.623 E8.02863
G1 X141.801 Y184.706 E8.04351
G1 X141.388 Y184.784 E8.05889
G1 X140.437 Y184.922 E8.09404
G1 X139.803 Y184.971 E8.11731
G1 X139.306 Y184.995 E8.13551
G1 X138.933 Y185.007 E8.14917
G1 X138.243 Y185.018 E8.17441
G1 X137.283 Y184.993 E8.20955
G1 X136.628 Y184.93 E8.23362
G1 X136.38 Y184.899 E8.24277
G1 X136.062 Y184.855 E8.25451
G1 X135.762 Y184.809 E8.26562
G1 X135.511 Y184.767 E8.27493
G1 X134.903 Y184.66 E8.29751
G1 X133.965 Y184.455 E8.33264
G1 X133.278 Y184.251 E8.35886
G1 X131.44 Y183.642 E8.4297
G1 X130.123 Y183.199 E8.48054
G1 X127.745 Y182.474 E8.57149
G1 X125.33 Y181.81 E8.66313
G1 X122.85 Y181.204 E8.75653
G1 X120.446 Y180.69 E8.84647
G1 X117.997 Y180.237 E8.93759
G1 X114.918 Y179.765 E9.05156
G1 X114.378 Y179.692 E9.07149
G1 X113.384 Y179.512 E9.10845
G1 X112.589 Y179.332 E9.13827
G1 X112.256 Y179.252 E9.1508
G1 X111.709 Y179.111 E9.17147
G1 X110.79 Y178.832 E9.20661
G1 X110.117 Y178.574 E9.23298
G1 X109.375 Y178.262 E9.26243
G1 X109.071 Y178.129 E9.27457
G1 X108.574 Y177.903 E9.29454
G1 X107.717 Y177.469 E9.32969
G1 X106.769 Y176.877 E9.37058
G1 X106.036 Y176.368 E9.40323
G1 X105.738 Y176.154 E9.41665
G1 X105.334 Y175.854 E9.43506
G1 X104.587 Y175.25 E9.47021
G1 X103.875 Y174.566 E9.50633
G1 X103.721 Y174.405 E9.51448
G1 X103.516 Y174.185 E9.52548
G1 X103.24 Y173.881 E9.5405
G1 X103.061 Y173.679 E9.55038
G1 X102.589 Y173.134 E9.57676
G1 X101.991 Y172.382 E9.61191
G1 X101.615 Y171.835 E9.63619
G1 X101.475 Y171.618 E9.64564
G1 X101.303 Y171.344 E9.65748
G1 X101.106 Y171.019 E9.67138
G1 X100.621 Y170.184 E9.70671
G1 X100.174 Y169.334 E9.74185
G1 X99.804 Y168.458 E9.77664
G1 X99.608 Y167.932 E9.79717
G1 X99.018 Y166.275 E9.86152
G1 X98.098 Y163.907 E9.95447
G1 X97.594 Y162.694 E10.00253
G1 X97.49 Y162.433 E10.01281
G1 X97.389 Y162.17 E10.02311
G1 X97.266 Y161.838 E10.03607
G1 X96.881 Y160.586 E10.08399
G1 X96.788 Y160.208 E10.09823
G1 X96.709 Y159.864 E10.11114
G1 X96.678 Y159.719 E10.11657
G1 X96.557 Y159.06 E10.14108
G1 X96.427 Y158.215 E10.17236
G1 X95.993 Y155.639 E10.26794
G1 X95.506 Y153.18 E10.35965
G1 X94.957 Y150.765 E10.45026
G1 X93.981 Y147.073 E10.58997
G1 X93.564 Y145.616 E10.64542
G1 X93.481 Y145.309 E10.65706
G1 X93.273 Y144.498 E10.68769
G1 X93.073 Y143.558 E10.72285
G1 X92.978 Y142.868 E10.74833
G1 X92.927 Y142.395 E10.76574
G1 X92.905 Y142.171 E10.77397
G1 X92.841 Y141.438 E10.80089
G1 X92.795 Y140.822 E10.82349
G1 X92.763 Y139.862 E10.85863
G1 X92.821 Y138.81 E10.89718
G1 X92.926 Y137.764 E10.93564
G1 X92.966 Y137.417 E10.94842
G1 X93.058 Y136.715 E10.97432
G1 X93.222 Y135.769 E11.00945
G1 X93.497 Y134.737 E11.04853
G1 X93.616 Y134.365 E11.06282
G1 X93.786 Y133.863 E11.08221
G1 X93.987 Y133.289 E11.10446
G1 X94.222 Y132.641 E11.12968
G1 X94.587 Y131.752 E11.16484
G1 X95.055 Y130.843 E11.20224
G1 X95.486 Y130.091 E11.23395
G1 X95.788 Y129.582 E11.25561
G1 X96.118 Y129.041 E11.27879
G1 X96.652 Y128.242 E11.31395
G1 X97.52 Y127.191 E11.36382
G1 X98.309 Y126.345 E11.40614
G1 X98.624 Y126.021 E11.42268
G1 X99.141 Y125.501 E11.4495
G1 X99.846 Y124.848 E11.48466
G0 F6000 X100.145 Y125.172
G1 F1200 X100.625 Y124.787 E11.50717
G1 X100.802 Y124.653 E11.5153
G1 X101.019 Y124.493 E11.52516
G1 X101.305 Y124.288 E11.53804
G1 X102.186 Y123.67 E11.57741
G1 X102.756 Y123.281 E11.60265
G1 X103.825 Y122.636 E11.64833
G1 X104.26 Y122.406 E11.66634
G1 X104.549 Y122.258 E11.67821
G1 X104.915 Y122.078 E11.69314
G1 X105.504 Y121.81 E11.71681
G1 X105.822 Y121.676 E11.72944
G1 X106.156 Y121.542 E11.7426
G1 X107.149 Y121.161 E11.78152
G1 X107.55 Y121.015 E11.79713
G1 X108.626 Y120.649 E11.83871
G1 X108.975 Y120.537 E11.85212
G1 X110.39 Y120.108 E11.90622
G1 X111.153 Y119.887 E11.93528
G1 X113.557 Y119.118 E12.02762
G1 X115.924 Y118.285 E12.11943
G1 X118.267 Y117.386 E12.21124
G1 X120.461 Y116.476 E12.29814
G1 X121.298 Y116.168 E12.33077
G1 X121.4 Y116.135 E12.3347
G1 X121.812 Y116.011 E12.35044
G1 X122.1 Y115.93 E12.36138
G1 X123.063 Y115.704 E12.39757
G1 X123.25 Y115.669 E12.40453
G1 X123.568 Y115.615 E12.41634
G1 X123.797 Y115.579 E12.42482
G1 X124.803 Y115.467 E12.46185
G1 X125.127 Y115.446 E12.47373
G1 X126.069 Y115.425 E12.5082
G1 X126.588 Y115.448 E12.52721
G1 X126.931 Y115.471 E12.53978
G1 X127.638 Y115.541 E12.56578
G1 X128.116 Y115.604 E12.58342
G1 X128.802 Y115.716 E12.60885
G1 X129.108 Y115.776 E12.62026
G1 X129.516 Y115.863 E12.63552
G1 X129.895 Y115.953 E12.64977
G1 X130.756 Y116.174 E12.68229
G1 X133.288 Y116.783 E12.77757
G1 X135.738 Y117.301 E12.86919
G1 X138.228 Y117.752 E12.96177
G1 X140.677 Y118.125 E13.0524
G1 X143.195 Y118.436 E13.14523
G1 X145.688 Y118.672 E13.23684
G1 X148.178 Y118.838 E13.32815
G1 X150.73 Y118.936 E13.42158
G1 X153.212 Y118.96 E13.51239
G1 X155.729 Y118.914 E13.6045
G1 X158.244 Y118.797 E13.69661
G1 X160.771 Y118.607 E13.78932
G1 X163.255 Y118.35 E13.88069
G1 X165.744 Y118.02 E13.97255
G1 X168.237 Y117.618 E14.06494
G1 X170.018 Y117.288 E14.1312
G1 X170.701 Y117.184 E14.15648
G1 X171.047 Y117.142 E14.16923
G1 X171.992 Y117.068 E14.20391
G1 X172.218 Y117.06 E14.21219
G1 X173.248 Y117.071 E14.24987
G1 X173.474 Y117.084 E14.25815
G1 X174.397 Y117.176 E14.29209
G1 X174.714 Y117.221 E14.3038
G1 X175.75 Y117.419 E14.34239
G1 X175.962 Y117.47 E14.35037
G1 X176.923 Y117.747 E14.38696
G1 X177.192 Y117.838 E14.39735
G1 X177.571 Y117.974 E14.41208
G1 X179.625 Y118.753 E14.49245
G1 X180.813 Y119.211 E14.53904
G1 X183.203 Y120.057 E14.63179
G1 X185.556 Y120.816 E14.72225
G1 X187.97 Y121.52 E14.81425
G1 X190.452 Y122.168 E14.9081
G1 X192.895 Y122.734 E14.99985
G1 X194.138 Y122.984 E15.04623
G1 X194.371 Y123.033 E15.05494
G1 X195.126 Y123.202 E15.08325
G1 X196.2 Y123.5 E15.12403
G1 X196.483 Y123.594 E15.13494
G1 X197.667 Y124.064 E15.18154
G1 X197.912 Y124.178 E15.19143
G1 X199.052 Y124.792 E15.2388
G1 X199.25 Y124.914 E15.24731
G1 X200.245 Y125.605 E15.29163
G1 X200.448 Y125.763 E15.30105
G1 X201.374 Y126.569 E15.34596
G1 X201.564 Y126.754 E15.35566
G1 X202.467 Y127.747 E15.40477
G1 X202.632 Y127.952 E15.4144
G1 X203.232 Y128.772 E15.45157
G1 X203.317 Y128.9 E15.45719
G1 X203.842 Y129.775 E15.49452
G1 X204.064 Y130.187 E15.51165
G1 X204.573 Y131.267 E15.55533
G1 X204.665 Y131.493 E15.56426
G1 X204.835 Y131.936 E15.58162
G1 X205.001 Y132.42 E15.60034
G1 X205.065 Y132.622 E15.60809
G1 X205.288 Y133.433 E15.63886
G1 X205.387 Y133.883 E15.65572
G1 X205.512 Y134.513 E15.67922
G1 X205.566 Y134.808 E15.69019
G1 X205.866 Y136.574 E15.75573
G1 X205.929 Y136.987 E15.77101
G1 X206.157 Y138.638 E15.83199
G1 X206.21 Y139.063 E15.84766
G1 X206.387 Y140.679 E15.90713
G1 X206.456 Y141.39 E15.93327
G1 X206.589 Y143.003 E15.99248
G1 X206.643 Y143.802 E16.02178
G1 X206.742 Y145.715 E16.09186
G1 X206.769 Y146.493 E16.12035
G1 X206.802 Y148.096 E16.17901
G1 X206.806 Y148.895 E16.20824
G1 X206.783 Y150.759 E16.27644
G1 X206.765 Y151.416 E16.30049
G1 X206.756 Y151.655 E16.30924
G1 X206.657 Y153.598 E16.38042
G1 X206.607 Y154.337 E16.40751
G1 X206.476 Y155.904 E16.46505
G1 X206.276 Y158.074 E16.54477
G1 X206.117 Y160.551 E16.63558
G1 X206.057 Y162.328 E16.70063
G1 X206.043 Y162.509 E16.70728
G1 X205.986 Y164.141 E16.76702
G1 X205.965 Y164.537 E16.78153
G1 X205.957 Y164.65 E16.78567
G1 X205.851 Y165.586 E16.82014
G1 X205.666 Y166.51 E16.85461
G1 X205.403 Y167.414 E16.88906
G1 X205.074 Y168.269 E16.92258
G1 X204.934 Y168.593 E16.93549
G1 X204.524 Y169.441 E16.96995
G1 X204.161 Y170.067 E16.99643
G1 X203.892 Y170.498 E17.01501
G1 X203.36 Y171.275 E17.04947
G1 X203.014 Y171.715 E17.06995
G1 X200.719 Y174.476 E17.2013
G1 X200.564 Y174.661 E17.21013
G1 X199.964 Y175.322 E17.24279
G1 X199.766 Y175.523 E17.25311
G1 X198.911 Y176.304 E17.29548
G1 X198.64 Y176.527 E17.30832
G1 X198.268 Y176.82 E17.32565
G1 X198.026 Y177.001 E17.3367
G1 X196.142 Y178.385 E17.42223
G1 X194.816 Y179.405 E17.48344
G1 X194.352 Y179.746 E17.5045
G1 X193.996 Y179.993 E17.52036
G1 X193.765 Y180.148 E17.53053
G1 X193.298 Y180.455 E17.55098
G1 X192.49 Y180.939 E17.58544
G1 X191.642 Y181.353 E17.61996
G1 X191.138 Y181.573 E17.64008
G1 X190.836 Y181.699 E17.65206
G1 X190.418 Y181.867 E17.66854
G1 X189.192 Y182.279 E17.71586
G1 X189.067 Y182.313 E17.7206
G1 X188.503 Y182.451 E17.74184
G1 X188.152 Y182.527 E17.75498
G1 X187.892 Y182.58 E17.76469
G1 X187.365 Y182.681 E17.78432
G1 X186.433 Y182.819 E17.81879
G1 X185.793 Y182.867 E17.84227
G1 X185.27 Y182.889 E17.86142
G1 X184.875 Y182.895 E17.87588
G1 X184.271 Y182.895 E17.89797
G1 X183.33 Y182.855 E17.93243
G1 X182.694 Y182.782 E17.95585
G1 X182.06 Y182.691 E17.97929
G1 X181.71 Y182.635 E17.99225
G1 X180.919 Y182.496 E18.02164
G1 X178.325 Y182.077 E18.11777
G1 X175.83 Y181.746 E18.20985
G1 X173.353 Y181.489 E18.30096
G1 X170.824 Y181.298 E18.39375
G1 X168.313 Y181.181 E18.48572
G1 X165.786 Y181.134 E18.57819
G1 X163.311 Y181.157 E18.66875
G1 X160.784 Y181.254 E18.76127
G1 X158.24 Y181.422 E18.85455
G1 X155.779 Y181.656 E18.94499
G1 X153.27 Y181.966 E19.03748
G1 X150.799 Y182.341 E19.12892
G1 X148.309 Y182.793 E19.22151
G1 X145.858 Y183.31 E19.31316
