;FLAVOR:Marlin
;TIME:941
;Filament used: 0.922319m
;Layer height: 0.2
;MINX:126.967
;MINY:126.731
;MINZ:0.2
;MAXX:173.036
;MAXY:173.269
;MAXZ:16.2
;Generated with Cura_SteamEngine 4.9.0
M140 S60
M105
M190 S60
M104 S200
M105
M109 S200
M82 ;absolute extrusion mode
G28 ; home all axes
 M117 Purge extruder
 G92 E0 ; reset extruder
 G1 Z1.0 F3000 ; move z up little to prevent scratching of surface
 G1 X2 Y20 Z0.3 F5000.0 ; move to start-line position
 G1 X2 Y200.0 Z0.3 F1500.0 E15 ; draw 1st line
 G1 X2 Y200.0 Z0.4 F5000.0 ; move to side a little
 G1 X2 Y20 Z0.4 F1500.0 E30 ; draw 2nd line
 G92 E0 ; reset extruder
 G1 Z1.0 F3000 ; move z up little to prevent scratching of surface
G92 E0
G92 E0
G1 F1500 E-2
;LAYER_COUNT:80
;LAYER:0
M107
G1 F300 Z0.4
;MESH:mora-cup-part2.stl
G0 F6000 X133.572 Y149.358 Z0.4
;TYPE:WALL-OUTER
G1 F300 Z0.2
G1 F1500 E0
G1 F1200 X133.604 Y149.233 E0.00472
G1 X133.695 Y149.288 E0.00861
G1 X133.572 Y149.358 E0.01379
G1 F1500 E-1.98621
G1 F300 Z0.4
G0 F6000 X160.514 Y173.267 Z0.4
G1 F300 Z0.2
G1 F1500 E0.01379
G1 F1200 X159.356 Y173.08 E0.0567
G1 X158.209 Y172.676 E0.1012
G1 X157.105 Y172.102 E0.14672
G1 X156.061 Y171.346 E0.19388
G1 X155.097 Y170.414 E0.24294
G1 X154.27 Y169.327 E0.29291
G1 X153.442 Y169.363 E0.32323
G1 X152.543 Y169.311 E0.35617
G1 X151.638 Y169.216 E0.38947
G1 X150.724 Y169.06 E0.42339
G1 X149.807 Y168.885 E0.45754
G1 X148.902 Y168.671 E0.49157
G1 X147.997 Y168.438 E0.52576
G1 X146.257 Y167.841 E0.59306
G1 X145.447 Y167.485 E0.62543
G1 X144.659 Y167.135 E0.65698
G1 X143.984 Y166.722 E0.68593
G1 X142.634 Y167.488 E0.74272
G1 X141.203 Y167.93 E0.79751
G1 X139.764 Y168.134 E0.85069
G1 X138.384 Y168.044 E0.90128
G1 X137.073 Y167.725 E0.95065
G1 X135.864 Y167.191 E0.999
G1 X134.821 Y166.419 E1.04648
G1 X133.925 Y165.463 E1.09441
G1 X133.261 Y164.328 E1.14252
G1 X132.855 Y163.018 E1.1927
G1 X132.712 Y161.568 E1.24601
G1 X132.942 Y160.009 E1.30366
G1 X132.489 Y159.901 E1.3207
G1 X132.107 Y159.64 E1.33763
G1 X131.744 Y159.329 E1.35512
G1 X131.429 Y158.964 E1.37276
G1 X131.149 Y158.584 E1.39002
G1 X130.903 Y158.174 E1.40752
G1 X130.75 Y157.732 E1.42463
G1 X130.63 Y157.276 E1.44188
G1 X130.614 Y156.808 E1.45901
G1 X130.647 Y156.313 E1.47716
G1 X130.773 Y155.85 E1.49472
G1 X131.043 Y155.429 E1.51302
G1 X130.708 Y154.961 E1.53407
G1 X130.521 Y154.38 E1.55641
G1 X130.427 Y153.742 E1.58
G1 X130.43 Y153.095 E1.60367
G1 X130.546 Y152.429 E1.6284
G1 X130.72 Y151.783 E1.65288
G1 X130.999 Y151.17 E1.67752
G1 X131.377 Y150.587 E1.70294
G1 X131.83 Y150.085 E1.72768
G1 X132.383 Y149.655 E1.75331
G1 X132.964 Y149.369 E1.777
G1 X133.39 Y149.46 E1.79294
G1 X133.101 Y149.624 E1.8051
G1 X132.53 Y149.899 E1.82828
G1 X132.034 Y150.314 E1.85194
G1 X131.611 Y150.784 E1.87508
G1 X131.265 Y151.318 E1.89836
G1 X131.003 Y151.897 E1.92161
G1 X130.826 Y152.504 E1.94474
G1 X130.734 Y153.121 E1.96757
G1 X130.731 Y153.731 E1.98988
G1 X130.818 Y154.311 E2.01134
G1 X130.975 Y154.859 E2.0322
G1 X131.265 Y155.424 E2.05543
G1 X131.061 Y155.948 E2.076
G1 X130.944 Y156.38 E2.09238
G1 X130.901 Y156.813 E2.1083
G1 X130.931 Y157.239 E2.12392
G1 X131.025 Y157.646 E2.13921
G1 X131.165 Y158.058 E2.15513
G1 X131.393 Y158.429 E2.17106
G1 X131.639 Y158.796 E2.18722
G1 X131.958 Y159.109 E2.20357
G1 X132.285 Y159.414 E2.21993
G1 X132.66 Y159.669 E2.23652
G1 X133.11 Y159.95 E2.25593
G1 X132.999 Y161.576 E2.31556
G1 X133.137 Y162.963 E2.36656
G1 X133.538 Y164.204 E2.41427
G1 X134.179 Y165.294 E2.46054
G1 X135.007 Y166.223 E2.50606
G1 X136.022 Y166.931 E2.55134
G1 X137.17 Y167.473 E2.59779
G1 X138.434 Y167.778 E2.64536
G1 X139.769 Y167.829 E2.69424
G1 X141.144 Y167.649 E2.74497
G1 X142.54 Y167.216 E2.79845
G1 X143.984 Y166.476 E2.85781
G1 X144.799 Y166.863 E2.89082
G1 X145.571 Y167.223 E2.92198
G1 X146.378 Y167.578 E2.95424
G1 X147.224 Y167.888 E2.9872
G1 X148.094 Y168.167 E3.02063
G1 X148.985 Y168.395 E3.05428
G1 X149.878 Y168.605 E3.08784
G1 X150.78 Y168.796 E3.12158
G1 X151.689 Y168.913 E3.15511
G1 X152.582 Y169.006 E3.18795
G1 X153.463 Y169.058 E3.22024
G1 X154.385 Y169.099 E3.25401
G1 X155.293 Y170.229 E3.30704
G1 X156.247 Y171.124 E3.3549
G1 X157.262 Y171.859 E3.40075
G1 X158.333 Y172.415 E3.4449
G1 X159.437 Y172.786 E3.48751
G1 X160.55 Y172.965 E3.52876
G1 X161.657 Y172.966 E3.56926
G1 X162.737 Y172.744 E3.6096
G1 X163.766 Y172.311 E3.65044
G1 X164.712 Y171.647 E3.69273
G1 X165.572 Y170.777 E3.73748
G1 X166.398 Y169.65 E3.7886
G1 X166.873 Y169.575 E3.8062
G1 X167.269 Y169.482 E3.82108
G1 X167.652 Y169.343 E3.83599
G1 X168.022 Y169.159 E3.8511
G1 X168.347 Y168.923 E3.8658
G1 X168.667 Y168.681 E3.88048
G1 X168.955 Y168.384 E3.89561
G1 X169.207 Y168.058 E3.91069
G1 X169.4 Y167.704 E3.92544
G1 X169.588 Y167.342 E3.94036
G1 X169.695 Y166.955 E3.95505
G1 X169.842 Y166.49 E3.9729
G1 X170.342 Y166.289 E3.99261
G1 X170.724 Y166.059 E4.00893
G1 X171.081 Y165.773 E4.02566
G1 X171.396 Y165.424 E4.04286
G1 X171.68 Y165.022 E4.06087
G1 X171.87 Y164.557 E4.07925
G1 X172.002 Y164.072 E4.09764
G1 X172.06 Y163.559 E4.11653
G1 X172.033 Y163.027 E4.13601
G1 X171.91 Y162.486 E4.15631
G1 X171.689 Y161.949 E4.17756
G1 X171.344 Y161.35 E4.20285
G1 X171.857 Y159.111 E4.28689
G1 X172.221 Y156.85 E4.37067
G1 X172.491 Y154.525 E4.45631
G1 X172.657 Y152.16 E4.54305
G1 X172.73 Y149.788 E4.62987
G1 X172.719 Y147.433 E4.71603
G1 X172.634 Y145.129 E4.80038
G1 X172.486 Y142.902 E4.88204
G1 X172.302 Y140.778 E4.96004
G1 X172.037 Y138.793 E5.03331
G1 X171.756 Y136.972 E5.10072
G1 X171.454 Y135.358 E5.1608
G1 X171.347 Y135.036 E5.17321
G1 X171.234 Y134.714 E5.18569
G1 X171.07 Y134.439 E5.19741
G1 X170.923 Y134.174 E5.2085
G1 X170.718 Y133.949 E5.21963
G1 X170.52 Y133.75 E5.2299
G1 X170.295 Y133.57 E5.24044
G1 X170.05 Y133.417 E5.25101
G1 X169.783 Y133.288 E5.26186
G1 X169.497 Y133.188 E5.27295
G1 X169.177 Y133.09 E5.28519
G1 X168.813 Y133.058 E5.29856
G1 X167.935 Y132.949 E5.33093
G1 X165.769 Y132.569 E5.41138
G1 X164.509 Y132.29 E5.4586
G1 X161.611 Y131.531 E5.5682
G1 X159.981 Y131.027 E5.63062
G1 X158.211 Y130.459 E5.69863
G1 X156.307 Y129.826 E5.77204
G1 X154.267 Y129.084 E5.85146
G1 X152.102 Y128.236 E5.93653
G1 X149.803 Y127.31 E6.02721
G1 X149.427 Y127.196 E6.04158
G1 X149.074 Y127.106 E6.05491
G1 X148.709 Y127.033 E6.06853
G1 X148.346 Y127.037 E6.08181
G1 X148.01 Y127.059 E6.09413
G1 X147.658 Y127.102 E6.1071
G1 X147.328 Y127.222 E6.11995
G1 X147.021 Y127.355 E6.13219
G1 X146.702 Y127.516 E6.14527
G1 X146.42 Y127.75 E6.15867
G1 X146.157 Y127.993 E6.17177
G1 X145.89 Y128.274 E6.18595
G1 X145.653 Y128.62 E6.2013
G1 X145.396 Y128.99 E6.21778
G1 X145.158 Y129.341 E6.2333
G1 X144.879 Y129.723 E6.2506
G1 X144.772 Y129.912 E6.25855
G1 X144.537 Y130.25 E6.27361
G1 X144.359 Y130.432 E6.28292
G1 X143.018 Y130.479 E6.33202
G1 X141.787 Y130.544 E6.37712
G1 X140.582 Y130.627 E6.42131
G1 X139.405 Y130.726 E6.46452
G1 X138.263 Y130.878 E6.50667
G1 X137.171 Y131.081 E6.54731
G1 X136.125 Y131.3 E6.58641
G1 X135.121 Y131.536 E6.62414
G1 X134.182 Y131.84 E6.66025
G1 X133.303 Y132.156 E6.69442
G1 X132.477 Y132.491 E6.72703
G1 X131.733 Y132.893 E6.75797
G1 X130.103 Y134.017 E6.83041
G1 X128.836 Y135.328 E6.89712
G1 X127.982 Y136.781 E6.95878
G1 X127.459 Y138.326 E7.01845
G1 X127.271 Y139.929 E7.0775
G1 X127.4 Y141.554 E7.13714
G1 X127.825 Y143.132 E7.19693
G1 X128.531 Y144.646 E7.25805
G1 X129.495 Y146.065 E7.32081
G1 X130.715 Y147.309 E7.38456
G1 X132.153 Y148.344 E7.44938
G1 X133.083 Y148.914 E7.48929
G1 X131.991 Y148.581 E7.53106
G1 X130.511 Y147.512 E7.59785
G1 X129.267 Y146.242 E7.6629
G1 X128.266 Y144.798 E7.72718
G1 X127.537 Y143.231 E7.79041
G1 X127.098 Y141.593 E7.85245
G1 X126.983 Y139.924 E7.91366
G1 X127.179 Y138.263 E7.97485
G1 X127.706 Y136.651 E8.0369
G1 X128.612 Y135.149 E8.10107
G1 X129.908 Y133.785 E8.16991
G1 X131.594 Y132.621 E8.24487
G1 X132.361 Y132.228 E8.2764
G1 X133.203 Y131.887 E8.30964
G1 X134.097 Y131.546 E8.34464
G1 X135.061 Y131.255 E8.38148
G1 X136.047 Y131.023 E8.41854
G1 X137.137 Y130.777 E8.45942
G1 X138.235 Y130.609 E8.50006
G1 X139.383 Y130.457 E8.54243
G1 X140.542 Y130.34 E8.58505
G1 X141.783 Y130.239 E8.6306
G1 X143.027 Y130.191 E8.67615
G1 X144.429 Y130.23 E8.72746
G1 X144.347 Y129.99 E8.73674
G1 X144.646 Y129.554 E8.75609
G1 X144.917 Y129.182 E8.77292
G1 X145.148 Y128.81 E8.78894
G1 X145.428 Y128.441 E8.80589
G1 X145.665 Y128.093 E8.8213
G1 X145.933 Y127.785 E8.83623
G1 X146.237 Y127.524 E8.85089
G1 X146.55 Y127.274 E8.86555
G1 X146.888 Y127.099 E8.87947
G1 X147.236 Y126.931 E8.89361
G1 X147.602 Y126.822 E8.90758
G1 X147.961 Y126.757 E8.92093
G1 X148.351 Y126.732 E8.93523
G1 X148.727 Y126.764 E8.94903
G1 X149.14 Y126.825 E8.96431
G1 X149.525 Y126.906 E8.9787
G1 X152.228 Y127.995 E9.08532
G1 X154.395 Y128.824 E9.17021
G1 X158.32 Y130.21 E9.3225
G1 X161.714 Y131.261 E9.45249
G1 X164.593 Y132.013 E9.56135
G1 X165.849 Y132.272 E9.60827
G1 X166.975 Y132.488 E9.65022
G1 X167.979 Y132.646 E9.6874
G1 X168.871 Y132.773 E9.72037
G1 X169.237 Y132.81 E9.73383
G1 X169.566 Y132.907 E9.74637
G1 X169.898 Y133.024 E9.75925
G1 X170.203 Y133.172 E9.77166
G1 X170.476 Y133.325 E9.78311
G1 X170.73 Y133.529 E9.79503
G1 X170.946 Y133.746 E9.80623
G1 X171.343 Y134.299 E9.83113
G1 X171.493 Y134.589 E9.84308
G1 X171.632 Y134.922 E9.85628
G1 X171.731 Y135.276 E9.86973
G1 X172.063 Y136.948 E9.93209
G1 X172.341 Y138.77 E9.99953
G1 X172.571 Y140.76 E10.07282
G1 X172.792 Y142.9 E10.15153
G1 X172.941 Y145.137 E10.23355
G1 X173.026 Y147.451 E10.31827
G1 X173.018 Y149.819 E10.40491
G1 X172.961 Y152.212 E10.49248
G1 X172.776 Y154.577 E10.57927
G1 X172.52 Y156.925 E10.66569
G1 X172.135 Y159.186 E10.7496
G1 X171.61 Y161.308 E10.82957
G1 X171.963 Y161.817 E10.85224
G1 X172.188 Y162.404 E10.87524
G1 X172.334 Y162.992 E10.8974
G1 X172.364 Y163.572 E10.91865
G1 X172.3 Y164.136 E10.93942
G1 X172.138 Y164.658 E10.95941
G1 X171.914 Y165.156 E10.97939
G1 X171.632 Y165.617 E10.99916
G1 X171.289 Y165.997 E11.01789
G1 X170.879 Y166.303 E11.03661
G1 X170.451 Y166.551 E11.05471
G1 X169.988 Y166.624 E11.07186
G1 X169.985 Y167.048 E11.08737
G1 X169.856 Y167.445 E11.10264
G1 X169.654 Y167.84 E11.11887
G1 X169.436 Y168.23 E11.13522
G1 X169.167 Y168.579 E11.15134
G1 X168.864 Y168.89 E11.16723
G1 X168.525 Y169.17 E11.18331
G1 X168.156 Y169.393 E11.19909
G1 X167.754 Y169.593 E11.21551
G1 X167.343 Y169.759 E11.23173
G1 X166.925 Y169.84 E11.24731
G1 X166.547 Y169.839 E11.26114
G1 X166.46 Y169.926 E11.26564
G1 X165.8 Y170.98 E11.31114
G1 X164.894 Y171.869 E11.35758
G1 X163.896 Y172.566 E11.40211
G1 X162.822 Y172.999 E11.44448
G1 X161.685 Y173.234 E11.48696
G1 X160.514 Y173.267 E11.52982
G1 F1500 E9.52982
G1 F300 Z0.4
;MESH:NONMESH
G0 F6000 X133.584 Y149.351 Z0.4
;TIME_ELAPSED:21.738966
;LAYER:1
M106 S85
;TYPE:WALL-OUTER
;MESH:mora-cup-part2.stl
G1 F300 Z0.4
G1 F1500 E11.52982
G1 F1650 X133.613 Y149.237 E11.53412
G1 X133.695 Y149.288 E11.53765
G1 X133.584 Y149.351 E11.54232
G1 F1500 E9.54232
G1 F300 Z0.6
G0 F8250 X160.521 Y173.268 Z0.6
G1 F300 Z0.4
G1 F1500 E11.54232
G1 F1650 X159.363 Y173.082 E11.58523
G1 X158.214 Y172.677 E11.62981
G1 X157.105 Y172.102 E11.67551
G1 X156.054 Y171.341 E11.72298
G1 X155.085 Y170.402 E11.77235
G1 X154.271 Y169.327 E11.82168
G1 X153.431 Y169.362 E11.85244
G1 X152.531 Y169.309 E11.88543
G1 X151.627 Y169.215 E11.91868
G1 X150.713 Y169.058 E11.95261
G1 X149.801 Y168.884 E11.98658
G1 X148.886 Y168.667 E12.02098
G1 X147.987 Y168.435 E12.05495
G1 X146.266 Y167.845 E12.12151
G1 X145.438 Y167.481 E12.1546
G1 X144.643 Y167.127 E12.18644
G1 X143.984 Y166.721 E12.21476
G1 X142.643 Y167.485 E12.27123
G1 X141.203 Y167.93 E12.32637
G1 X139.773 Y168.134 E12.37922
G1 X138.384 Y168.044 E12.43014
G1 X137.073 Y167.725 E12.47951
G1 X135.871 Y167.195 E12.52757
G1 X134.821 Y166.419 E12.57534
G1 X133.929 Y165.47 E12.62299
G1 X133.261 Y164.328 E12.67139
G1 X132.855 Y163.018 E12.72157
G1 X132.712 Y161.568 E12.77487
G1 X132.942 Y160.008 E12.83257
G1 X132.489 Y159.902 E12.84959
G1 X132.108 Y159.641 E12.86648
G1 X131.74 Y159.324 E12.88425
G1 X131.43 Y158.967 E12.90155
G1 X131.149 Y158.584 E12.91893
G1 X130.905 Y158.178 E12.93626
G1 X130.755 Y157.749 E12.95289
G1 X130.63 Y157.278 E12.97072
G1 X130.614 Y156.802 E12.98814
G1 X130.648 Y156.308 E13.00626
G1 X130.775 Y155.846 E13.02379
G1 X131.043 Y155.432 E13.04183
G1 X130.709 Y154.963 E13.0629
G1 X130.521 Y154.384 E13.08517
G1 X130.427 Y153.746 E13.10876
G1 X130.43 Y153.099 E13.13243
G1 X130.546 Y152.429 E13.15731
G1 X130.723 Y151.775 E13.1821
G1 X130.999 Y151.17 E13.20643
G1 X131.372 Y150.593 E13.23157
G1 X131.828 Y150.088 E13.25646
G1 X132.378 Y149.657 E13.28203
G1 X132.963 Y149.369 E13.30588
G1 X133.387 Y149.461 E13.32175
G1 X133.093 Y149.627 E13.33411
G1 X132.534 Y149.898 E13.35684
G1 X132.036 Y150.311 E13.38051
G1 X131.607 Y150.79 E13.40403
G1 X131.266 Y151.316 E13.42697
G1 X131.001 Y151.905 E13.4506
G1 X130.826 Y152.501 E13.47332
G1 X130.734 Y153.13 E13.49658
G1 X130.732 Y153.738 E13.51882
G1 X130.817 Y154.308 E13.53991
G1 X130.98 Y154.868 E13.56125
G1 X131.265 Y155.424 E13.58411
G1 X131.059 Y155.953 E13.60488
G1 X130.944 Y156.378 E13.62098
G1 X130.901 Y156.818 E13.63716
G1 X130.932 Y157.244 E13.65279
G1 X131.026 Y157.652 E13.6681
G1 X131.168 Y158.063 E13.68401
G1 X131.396 Y158.433 E13.69991
G1 X131.642 Y158.799 E13.71605
G1 X131.962 Y159.113 E13.73245
G1 X132.291 Y159.418 E13.74886
G1 X132.667 Y159.673 E13.76548
G1 X133.11 Y159.95 E13.7846
G1 X132.998 Y161.568 E13.84394
G1 X133.135 Y162.956 E13.89497
G1 X133.538 Y164.203 E13.94291
G1 X134.174 Y165.289 E13.98896
G1 X134.996 Y166.211 E14.03415
G1 X135.033 Y166.241 E14.03589
G1 X136.022 Y166.931 E14.08001
G1 X137.164 Y167.47 E14.12621
G1 X138.426 Y167.777 E14.17373
G1 X139.761 Y167.83 E14.22261
G1 X141.136 Y167.651 E14.27334
G1 X142.525 Y167.222 E14.32653
G1 X142.571 Y167.201 E14.32838
G1 X143.984 Y166.476 E14.38648
G1 X144.808 Y166.867 E14.41985
G1 X145.581 Y167.227 E14.45105
G1 X146.389 Y167.581 E14.48332
G1 X147.235 Y167.892 E14.5163
G1 X148.105 Y168.17 E14.54972
G1 X148.996 Y168.398 E14.58337
G1 X149.89 Y168.607 E14.61696
G1 X150.792 Y168.798 E14.65069
G1 X151.7 Y168.914 E14.68418
G1 X152.593 Y169.007 E14.71703
G1 X153.476 Y169.059 E14.74939
G1 X154.384 Y169.099 E14.78264
G1 X155.288 Y170.223 E14.83541
G1 X156.24 Y171.12 E14.88327
G1 X157.256 Y171.856 E14.92917
G1 X158.327 Y172.413 E14.97333
G1 X159.431 Y172.785 E15.01596
G1 X160.544 Y172.965 E15.05721
G1 X161.65 Y172.966 E15.09767
G1 X162.73 Y172.745 E15.138
G1 X163.76 Y172.314 E15.17885
G1 X164.706 Y171.652 E15.2211
G1 X165.567 Y170.784 E15.26583
G1 X166.398 Y169.65 E15.31726
G1 X166.879 Y169.573 E15.33508
G1 X167.273 Y169.48 E15.34989
G1 X167.656 Y169.341 E15.3648
G1 X168.026 Y169.155 E15.37995
G1 X168.35 Y168.92 E15.3946
G1 X168.67 Y168.678 E15.40927
G1 X168.958 Y168.38 E15.42444
G1 X169.209 Y168.054 E15.43949
G1 X169.402 Y167.7 E15.45424
G1 X169.59 Y167.336 E15.46923
G1 X169.697 Y166.947 E15.48399
G1 X169.842 Y166.49 E15.50153
G1 X170.339 Y166.289 E15.52115
G1 X170.722 Y166.06 E15.53747
G1 X171.084 Y165.769 E15.55446
G1 X171.395 Y165.426 E15.5714
G1 X171.682 Y165.016 E15.58971
G1 X171.871 Y164.551 E15.60808
G1 X172.003 Y164.066 E15.62647
G1 X172.06 Y163.552 E15.64539
G1 X172.033 Y163.03 E15.66451
G1 X171.912 Y162.49 E15.68476
G1 X171.691 Y161.953 E15.706
G1 X171.343 Y161.35 E15.73148
G1 X171.862 Y159.083 E15.81656
G1 X172.22 Y156.864 E15.8988
G1 X172.49 Y154.539 E15.98443
G1 X172.657 Y152.175 E16.07114
G1 X172.73 Y149.758 E16.15961
G1 X172.718 Y147.404 E16.24573
G1 X172.635 Y145.143 E16.32851
G1 X172.483 Y142.876 E16.41163
G1 X172.298 Y140.753 E16.4896
G1 X172.033 Y138.77 E16.5628
