;FLAVOR:Marlin
;TIME:438
;Filament used: 0.378241m
;Layer height: 0.2
;MINX:115.236
;MINY:114.998
;MINZ:0.2
;MAXX:184.782
;MAXY:185.017
;MAXZ:6
;Generated with Cura_SteamEngine 4.9.0
M140 S60
M105
M190 S60
M104 S200
M105
M109 S200
M82 ;absolute extrusion mode
G28 ; home all axes
 M117 Purge extruder
 G92 E0 ; reset extruder
 G1 Z1.0 F3000 ; move z up little to prevent scratching of surface
 G1 X2 Y20 Z0.3 F5000.0 ; move to start-line position
 G1 X2 Y200.0 Z0.3 F1500.0 E15 ; draw 1st line
 G1 X2 Y200.0 Z0.4 F5000.0 ; move to side a little
 G1 X2 Y20 Z0.4 F1500.0 E30 ; draw 2nd line
 G92 E0 ; reset extruder
 G1 Z1.0 F3000 ; move z up little to prevent scratching of surface
G92 E0
G92 E0
G1 F1500 E-2
;LAYER_COUNT:30
;LAYER:0
M107
G0 F6000 X121.481 Y125.594 Z0.2
;TYPE:SKIRT
G1 F1500 E0
G1 F1200 X122.18 Y124.935 E0.03515
G1 X123.005 Y124.283 E0.07362
G1 X123.773 Y123.731 E0.10822
G1 X124.351 Y123.329 E0.13398
G1 X125.053 Y122.857 E0.16493
G1 X125.972 Y122.301 E0.20423
G1 X126.263 Y122.143 E0.21634
G1 X126.683 Y121.926 E0.23364
G1 X127.182 Y121.681 E0.25398
G1 X127.787 Y121.405 E0.2783
G1 X128.359 Y121.164 E0.30101
G1 X128.607 Y121.063 E0.31081
G1 X129.241 Y120.813 E0.33574
G1 X129.523 Y120.707 E0.34677
G1 X130.091 Y120.5 E0.36888
G1 X130.433 Y120.381 E0.38213
G1 X130.761 Y120.273 E0.39477
G1 X131.198 Y120.139 E0.41149
G1 X131.9 Y119.938 E0.43821
G1 X134.374 Y119.193 E0.53273
G1 X136.749 Y118.404 E0.6243
G1 X139.065 Y117.561 E0.71447
G1 X142.617 Y116.126 E0.85463
G1 X143.582 Y115.762 E0.89236
G1 X143.689 Y115.727 E0.89648
G1 X144.18 Y115.578 E0.91525
G1 X144.46 Y115.5 E0.92589
G1 X145.507 Y115.261 E0.96518
G1 X145.867 Y115.196 E0.97856
G1 X146.854 Y115.061 E1.01501
G1 X147.081 Y115.04 E1.02335
G1 X147.553 Y115.006 E1.04066
G1 X147.709 Y114.998 E1.04638
G1 X149.088 Y115.01 E1.09683
G1 X149.424 Y115.033 E1.10915
G1 X150.134 Y115.104 E1.13526
G1 X150.623 Y115.168 E1.1533
G1 X151.339 Y115.284 E1.17984
G1 X151.651 Y115.345 E1.19147
G1 X152.039 Y115.428 E1.20599
G1 X152.147 Y115.453 E1.21004
G1 X153.074 Y115.709 E1.24523
G1 X153.693 Y115.927 E1.26924
G1 X155.066 Y116.454 E1.32304
G1 X155.532 Y116.638 E1.34137
G1 X157.97 Y117.559 E1.43672
G1 X160.331 Y118.375 E1.52812
G1 X162.725 Y119.129 E1.61994
G1 X165.128 Y119.81 E1.71132
G1 X167.534 Y120.42 E1.80213
G1 X170.508 Y121.078 E1.91357
G1 X171.403 Y121.26 E1.94699
G1 X172.136 Y121.434 E1.97455
G1 X172.778 Y121.609 E1.9989
G1 X173.785 Y121.934 E2.03761
G1 X174.015 Y122.02 E2.04659
G1 X174.844 Y122.367 E2.07947
G1 X175.033 Y122.455 E2.0871
G1 X175.469 Y122.67 E2.10489
G1 X175.749 Y122.815 E2.11642
G1 X176.464 Y123.218 E2.14645
G1 X176.652 Y123.333 E2.15451
G1 X177.705 Y124.061 E2.20135
G1 X178.052 Y124.337 E2.21757
G1 X178.214 Y124.471 E2.22526
G1 X178.934 Y125.119 E2.2607
G1 X179.08 Y125.262 E2.26818
G1 X179.418 Y125.607 E2.28585
G1 X180.25 Y126.59 E2.33297
G1 X180.657 Y127.129 E2.35768
G1 X180.972 Y127.566 E2.37739
G1 X181.658 Y128.689 E2.42553
G1 X181.863 Y129.072 E2.44143
G1 X182.136 Y129.617 E2.46373
G1 X182.174 Y129.698 E2.467
G1 X182.43 Y130.283 E2.49036
G1 X182.505 Y130.469 E2.4977
G1 X182.861 Y131.49 E2.53726
G1 X182.993 Y131.933 E2.55417
G1 X183.237 Y132.902 E2.59073
G1 X183.344 Y133.421 E2.61012
G1 X183.426 Y133.802 E2.62438
G1 X183.491 Y134.132 E2.63668
G1 X183.667 Y135.087 E2.67221
G1 X183.723 Y135.418 E2.68449
G1 X183.824 Y136.072 E2.7087
G1 X183.856 Y136.295 E2.71695
G1 X184.107 Y138.161 E2.78583
G1 X184.135 Y138.384 E2.79405
G1 X184.189 Y138.867 E2.81183
G1 X184.23 Y139.269 E2.82662
G1 X184.316 Y140.017 E2.85416
G1 X184.411 Y140.954 E2.88862
G1 X184.569 Y142.801 E2.95644
G1 X184.586 Y143.03 E2.96484
G1 X184.639 Y143.85 E2.99491
G1 X184.712 Y145.274 E3.04707
G1 X184.743 Y146.107 E3.07757
G1 X184.749 Y146.337 E3.08599
G1 X184.78 Y148.232 E3.15533
G1 X184.782 Y148.459 E3.16363
G1 X184.778 Y149.479 E3.20095
G1 X184.763 Y150.572 E3.24095
G1 X184.729 Y151.943 E3.29112
G1 X184.701 Y152.694 E3.31862
G1 X184.684 Y153.02 E3.33056
G1 X184.637 Y153.728 E3.35652
G1 X184.548 Y154.866 E3.39828
G1 X184.51 Y155.269 E3.41309
G1 X184.306 Y157.84 E3.50745
G1 X184.177 Y160.344 E3.59918
G1 X184.119 Y162.855 E3.69108
G1 X184.119 Y163.339 E3.70878
G1 X184.115 Y163.656 E3.72038
G1 X184.108 Y163.911 E3.72971
G1 X184.078 Y164.479 E3.75052
G1 X184.064 Y164.661 E3.7572
G1 X184.001 Y165.266 E3.77946
G1 X183.948 Y165.673 E3.79447
G1 X183.785 Y166.62 E3.82963
G1 X183.628 Y167.258 E3.85367
G1 X183.581 Y167.428 E3.86012
G1 X183.44 Y167.899 E3.87811
G1 X183.347 Y168.187 E3.88918
G1 X182.971 Y169.189 E3.92834
G1 X182.733 Y169.744 E3.95043
G1 X182.568 Y170.112 E3.96519
G1 X182.075 Y171.057 E4.00418
G1 X181.965 Y171.246 E4.01218
G1 X181.788 Y171.539 E4.02471
G1 X181.61 Y171.825 E4.03703
G1 X181.069 Y172.618 E4.07215
G1 X180.631 Y173.171 E4.09796
G1 X179.716 Y174.255 E4.14986
G1 X179.635 Y174.36 E4.15471
G1 X179.288 Y174.764 E4.1742
G1 X178.265 Y176.013 E4.23326
G1 X177.864 Y176.477 E4.2557
G1 X177.73 Y176.624 E4.26298
G1 X177.342 Y177.03 E4.28353
G1 X177.134 Y177.237 E4.29426
G1 X176.599 Y177.736 E4.32103
G1 X176.502 Y177.821 E4.32575
G1 X176.138 Y178.128 E4.34317
G1 X175.896 Y178.323 E4.35454
G1 X175.353 Y178.734 E4.37945
G1 X175.18 Y178.857 E4.38722
G1 X172.28 Y181.018 E4.51954
G1 X171.145 Y181.842 E4.57085
G1 X170.826 Y182.065 E4.58509
G1 X170.456 Y182.315 E4.60143
G1 X169.638 Y182.819 E4.63658
G1 X168.468 Y183.391 E4.68423
G1 X167.94 Y183.613 E4.70518
G1 X167.61 Y183.746 E4.7182
G1 X167.077 Y183.951 E4.73909
G1 X166.166 Y184.258 E4.77427
G1 X165.493 Y184.433 E4.79971
G1 X164.684 Y184.617 E4.83006
G1 X164.281 Y184.701 E4.84512
G1 X163.855 Y184.782 E4.86099
G1 X162.904 Y184.922 E4.89616
G1 X162.218 Y184.973 E4.92132
G1 X161.729 Y184.995 E4.93923
G1 X161.409 Y185.005 E4.95095
G1 X160.713 Y185.017 E4.97641
G1 X159.753 Y184.994 E5.01155
G1 X159.107 Y184.933 E5.03529
G1 X158.879 Y184.905 E5.04369
G1 X158.529 Y184.856 E5.05662
G1 X157.947 Y184.764 E5.07818
G1 X157.347 Y184.658 E5.10047
G1 X156.409 Y184.452 E5.13561
G1 X155.728 Y184.249 E5.1616
G1 X153.909 Y183.647 E5.2317
G1 X152.538 Y183.187 E5.28461
G1 X150.184 Y182.469 E5.37465
G1 X147.761 Y181.804 E5.46658
G1 X145.284 Y181.199 E5.55987
G1 X142.881 Y180.687 E5.64976
G1 X140.423 Y180.232 E5.74121
G1 X137.361 Y179.763 E5.85455
G1 X136.827 Y179.691 E5.87426
G1 X135.834 Y179.512 E5.91118
G1 X135.104 Y179.347 E5.93856
G1 X134.755 Y179.263 E5.95169
G1 X134.141 Y179.104 E5.9749
G1 X133.222 Y178.824 E6.01004
G1 X132.563 Y178.571 E6.03587
G1 X131.823 Y178.26 E6.06524
G1 X131.48 Y178.109 E6.07895
G1 X130.955 Y177.868 E6.10008
G1 X130.099 Y177.431 E6.13525
G1 X129.392 Y176.998 E6.16558
G1 X129.3 Y176.937 E6.16962
G1 X128.934 Y176.684 E6.1859
G1 X128.509 Y176.378 E6.20506
G1 X128.24 Y176.179 E6.2173
G1 X127.657 Y175.733 E6.24415
G1 X126.919 Y175.118 E6.2793
G1 X126.442 Y174.66 E6.30349
G1 X126.2 Y174.414 E6.31612
G1 X126.015 Y174.222 E6.32587
G1 X125.708 Y173.893 E6.34234
G1 X125.24 Y173.381 E6.36772
G1 X124.622 Y172.645 E6.40288
G1 X123.879 Y171.559 E6.45102
G1 X123.518 Y170.961 E6.47657
G1 X123.357 Y170.687 E6.4882
G1 X123.03 Y170.11 E6.51247
G1 X122.592 Y169.255 E6.54761
G1 X122.214 Y168.335 E6.584
G1 X121.776 Y167.119 E6.63129
G1 X120.859 Y164.681 E6.72659
G1 X120.381 Y163.49 E6.77354
G1 X120.121 Y162.855 E6.79864
G1 X119.978 Y162.488 E6.81305
G1 X119.722 Y161.795 E6.84008
G1 X119.482 Y161.071 E6.86799
G1 X119.445 Y160.946 E6.87276
G1 X119.313 Y160.463 E6.89108
G1 X119.221 Y160.094 E6.90499
G1 X119.021 Y159.116 E6.94151
G1 X118.815 Y157.82 E6.98952
G1 X118.374 Y155.286 E7.08363
G1 X117.885 Y152.871 E7.17378
G1 X117.321 Y150.451 E7.26469
G1 X116.452 Y147.19 E7.38816
G1 X115.952 Y145.438 E7.45482
G1 X115.871 Y145.129 E7.4665
G1 X115.697 Y144.437 E7.49261
G1 X115.502 Y143.497 E7.52773
G1 X115.415 Y142.852 E7.55154
G1 X115.378 Y142.47 E7.56558
G1 X115.321 Y141.758 E7.59172
G1 X115.291 Y141.3 E7.60851
G1 X115.25 Y140.567 E7.63537
G1 X115.236 Y139.607 E7.6705
G1 X115.274 Y138.934 E7.69516
G1 X115.301 Y138.62 E7.70669
G1 X115.337 Y138.271 E7.71952
G1 X115.441 Y137.393 E7.75187
G1 X115.534 Y136.694 E7.77767
G1 X115.7 Y135.748 E7.81281
G1 X115.954 Y134.787 E7.84918
G1 X116.185 Y134.047 E7.87754
G1 X116.373 Y133.474 E7.8996
G1 X116.594 Y132.828 E7.92458
G1 X116.943 Y131.932 E7.95976
G1 X117.548 Y130.743 E8.00857
G1 X117.966 Y130.029 E8.03884
G1 X118.292 Y129.49 E8.06189
G1 X118.664 Y128.895 E8.08756
G1 X119.207 Y128.103 E8.12269
G1 X119.835 Y127.333 E8.15904
G1 X119.983 Y127.167 E8.16718
G1 X120.399 Y126.718 E8.18958
G1 X120.996 Y126.091 E8.22125
G1 X121.481 Y125.594 E8.24666
G0 F6000 X121.796 Y125.902
G1 F1200 X122.482 Y125.256 E8.28113
G1 X123.262 Y124.641 E8.31747
G1 X124.192 Y123.974 E8.35934
G1 X124.737 Y123.598 E8.38357
G1 X125.298 Y123.222 E8.40828
G1 X126.182 Y122.688 E8.44606
G1 X126.473 Y122.53 E8.45818
G1 X126.877 Y122.321 E8.47482
G1 X127.376 Y122.076 E8.49516
G1 X127.958 Y121.811 E8.51855
G1 X128.53 Y121.57 E8.54126
G1 X128.768 Y121.473 E8.55066
G1 X129.402 Y121.223 E8.5756
G1 X129.673 Y121.12 E8.5862
G1 X130.241 Y120.913 E8.60832
G1 X130.57 Y120.799 E8.62106
G1 X130.898 Y120.691 E8.6337
G1 X131.319 Y120.562 E8.64981
G1 X131.989 Y120.37 E8.6753
G1 X134.5 Y119.614 E8.77125
G1 X136.91 Y118.813 E8.86416
G1 X139.232 Y117.968 E8.95456
G1 X142.716 Y116.562 E9.09202
G1 X142.791 Y116.53 E9.095
G1 X143.719 Y116.18 E9.13129
G1 X143.826 Y116.145 E9.13541
G1 X144.298 Y116.002 E9.15345
G1 X144.578 Y115.924 E9.16409
G1 X145.585 Y115.694 E9.20188
G1 X145.945 Y115.629 E9.21526
G1 X146.894 Y115.499 E9.2503
G1 X147.121 Y115.478 E9.25865
G1 X147.576 Y115.446 E9.27533
G1 X147.732 Y115.438 E9.28105
G1 X149.058 Y115.449 E9.32956
G1 X149.394 Y115.472 E9.34188
G1 X150.076 Y115.54 E9.36696
G1 X150.565 Y115.604 E9.385
G1 X151.255 Y115.716 E9.41058
G1 X151.567 Y115.777 E9.42221
G1 X152.048 Y115.882 E9.44022
G1 X152.956 Y116.133 E9.47469
G1 X153.535 Y116.338 E9.49716
G1 X154.656 Y116.769 E9.5411
G1 X154.904 Y116.863 E9.5508
G1 X155.413 Y117.064 E9.57082
G1 X157.809 Y117.97 E9.66454
G1 X160.194 Y118.794 E9.75686
G1 X162.58 Y119.545 E9.84838
G1 X165.006 Y120.233 E9.94064
G1 X167.46 Y120.855 E10.03326
G1 X170.377 Y121.5 E10.14256
G1 X171.316 Y121.691 E10.17762
G1 X172.02 Y121.859 E10.2041
G1 X172.662 Y122.034 E10.22844
G1 X173.631 Y122.346 E10.26569
G1 X173.861 Y122.432 E10.27467
G1 X174.658 Y122.766 E10.30628
G1 X174.847 Y122.854 E10.31391
G1 X175.266 Y123.06 E10.33099
G1 X175.546 Y123.205 E10.34253
G1 X176.234 Y123.593 E10.37143
G1 X176.422 Y123.708 E10.37949
G1 X177.436 Y124.408 E10.42457
G1 X177.772 Y124.676 E10.4403
G1 X177.934 Y124.81 E10.44799
G1 X178.626 Y125.433 E10.48205
G1 X178.772 Y125.576 E10.48953
G1 X179.099 Y125.91 E10.50663
G1 X179.899 Y126.855 E10.55193
G1 X180.306 Y127.394 E10.57664
G1 X180.61 Y127.817 E10.5957
G1 X181.27 Y128.897 E10.64201
G1 X181.475 Y129.28 E10.6579
G1 X181.738 Y129.804 E10.67935
G1 X181.776 Y129.885 E10.68262
G1 X182.022 Y130.448 E10.7051
G1 X182.097 Y130.634 E10.71244
G1 X182.44 Y131.615 E10.75046
G1 X182.572 Y132.058 E10.76737
G1 X182.806 Y132.991 E10.80257
G1 X182.914 Y133.517 E10.82221
G1 X182.995 Y133.889 E10.83614
G1 X183.058 Y134.212 E10.84818
G1 X183.234 Y135.167 E10.88371
G1 X183.288 Y135.485 E10.89551
G1 X183.389 Y136.139 E10.91972
G1 X183.42 Y136.353 E10.92763
G1 X183.671 Y138.219 E10.99652
G1 X183.698 Y138.434 E11.00444
G1 X183.752 Y138.912 E11.02204
G1 X183.798 Y139.365 E11.0387
G1 X183.878 Y140.062 E11.06437
G1 X183.973 Y140.992 E11.09857
G1 X184.131 Y142.839 E11.16639
G1 X184.19 Y143.715 E11.19852
G1 X184.28 Y145.462 E11.26252
G1 X184.304 Y146.123 E11.28672
G1 X184.31 Y146.344 E11.2948
G1 X184.341 Y148.239 E11.36414
G1 X184.339 Y149.362 E11.40523
G1 X184.323 Y150.562 E11.44914
G1 X184.289 Y151.927 E11.49909
G1 X184.261 Y152.678 E11.52659
G1 X184.245 Y152.991 E11.53806
G1 X184.198 Y153.694 E11.56383
G1 X184.11 Y154.825 E11.60534
G1 X184.069 Y155.263 E11.62143
G1 X183.866 Y157.819 E11.71524
G1 X183.738 Y160.31 E11.8065
G1 X183.679 Y162.863 E11.89993
G1 X183.679 Y163.339 E11.91734
G1 X183.675 Y163.644 E11.9285
G1 X183.668 Y163.899 E11.93783
G1 X183.639 Y164.445 E11.95784
G1 X183.625 Y164.627 E11.96452
G1 X183.565 Y165.209 E11.98592
G1 X183.512 Y165.616 E12.00094
G1 X183.351 Y166.545 E12.03543
G1 X183.204 Y167.141 E12.05789
G1 X183.157 Y167.311 E12.06435
G1 X183.021 Y167.764 E12.08165
G1 X182.928 Y168.052 E12.09272
G1 X182.567 Y169.016 E12.13038
G1 X182.329 Y169.571 E12.15248
G1 X182.169 Y169.926 E12.16672
G1 X181.694 Y170.835 E12.20425
G1 X181.584 Y171.024 E12.21225
G1 X181.415 Y171.306 E12.22428
G1 X181.237 Y171.592 E12.2366
G1 X180.706 Y172.37 E12.27106
G1 X180.295 Y172.887 E12.29523
G1 X179.432 Y173.91 E12.34419
G1 X179.302 Y174.073 E12.35182
G1 X178.963 Y174.468 E12.37086
G1 X177.925 Y175.735 E12.43079
G1 X177.539 Y176.181 E12.45237
G1 X177.405 Y176.328 E12.45965
G1 X177.032 Y176.718 E12.47939
G1 X176.824 Y176.925 E12.49013
G1 X176.309 Y177.405 E12.51588
G1 X176.212 Y177.49 E12.5206
G1 X175.862 Y177.785 E12.53735
G1 X175.62 Y177.98 E12.54872
G1 X175.098 Y178.376 E12.57269
G1 X174.896 Y178.52 E12.58177
G1 X172.021 Y180.661 E12.71292
G1 X170.886 Y181.485 E12.76423
G1 X170.579 Y181.7 E12.77794
G1 X170.209 Y181.95 E12.79428
G1 X169.407 Y182.444 E12.82874
G1 X168.297 Y182.985 E12.87392
G1 X167.769 Y183.207 E12.89487
G1 X167.452 Y183.335 E12.90738
G1 X166.919 Y183.54 E12.92827
G1 X166.026 Y183.841 E12.96275
G1 X165.396 Y184.004 E12.98656
G1 X164.587 Y184.188 E13.01691
G1 X164.198 Y184.269 E13.03145
G1 X163.772 Y184.35 E13.04732
G1 X162.84 Y184.486 E13.08178
G1 X162.198 Y184.534 E13.10533
G1 X161.709 Y184.556 E13.12324
G1 X161.401 Y184.565 E13.13451
G1 X160.705 Y184.577 E13.15998
G1 X159.764 Y184.554 E13.19442
G1 X159.161 Y184.496 E13.21658
G1 X158.933 Y184.468 E13.22499
G1 X158.596 Y184.422 E13.23743
G1 X158.265 Y184.371 E13.24968
G1 X158.024 Y184.331 E13.25862
G1 X157.424 Y184.225 E13.28091
G1 X156.504 Y184.022 E13.31538
G1 X155.866 Y183.831 E13.33975
G1 X154.049 Y183.23 E13.40976
G1 X152.699 Y182.777 E13.46186
G1 X150.28 Y182.039 E13.55439
G1 X147.85 Y181.373 E13.64657
G1 X145.406 Y180.776 E13.73862
G1 X142.946 Y180.251 E13.83065
G1 X140.508 Y179.8 E13.92136
G1 X137.416 Y179.327 E14.0358
G1 X136.887 Y179.255 E14.05533
G1 X135.931 Y179.083 E14.09087
G1 X135.201 Y178.918 E14.11825
G1 X134.865 Y178.837 E14.1309
G1 X134.251 Y178.678 E14.1541
G1 X133.35 Y178.403 E14.18857
G1 X132.733 Y178.165 E14.21276
G1 X131.993 Y177.854 E14.24213
G1 X131.663 Y177.709 E14.25532
G1 X131.138 Y177.468 E14.27645
G1 X130.299 Y177.039 E14.31093
G1 X129.635 Y176.631 E14.33944
G1 X129.543 Y176.57 E14.34348
G1 X129.191 Y176.327 E14.35913
G1 X128.766 Y176.021 E14.37829
G1 X128.508 Y175.829 E14.39005
G1 X127.925 Y175.383 E14.41691
G1 X127.201 Y174.779 E14.45141
G1 X126.756 Y174.351 E14.47399
G1 X126.514 Y174.105 E14.48662
G1 X126.336 Y173.92 E14.49601
G1 X126.033 Y173.596 E14.51224
G1 X125.565 Y173.084 E14.53762
G1 X124.959 Y172.362 E14.57211
G1 X124.255 Y171.332 E14.61775
G1 X123.894 Y170.734 E14.64331
G1 X123.74 Y170.47 E14.65449
G1 X123.413 Y169.893 E14.67875
G1 X122.984 Y169.054 E14.71323
G1 X122.628 Y168.185 E14.74759
G1 X122.192 Y166.977 E14.79458
G1 X121.283 Y164.558 E14.88912
G1 X120.789 Y163.327 E14.93765
G1 X120.528 Y162.689 E14.96287
G1 X120.391 Y162.335 E14.97676
G1 X120.135 Y161.642 E15.00378
G1 X119.903 Y160.946 E15.03063
G1 X119.866 Y160.821 E15.03539
G1 X119.74 Y160.356 E15.05302
G1 X119.648 Y159.987 E15.06693
G1 X119.456 Y159.047 E15.10204
G1 X119.251 Y157.76 E15.14972
G1 X118.811 Y155.224 E15.24388
G1 X118.317 Y152.789 E15.33479
G1 X117.738 Y150.302 E15.42821
G1 X116.888 Y147.112 E15.54899
