;FLAVOR:Marlin
;TIME:16324
;Filament used: 15.5552m
;Layer height: 0.2
;MINX:88.093
;MINY:120.809
;MINZ:0.2
;MAXX:211.907
;MAXY:179.409
;MAXZ:81.4
;Generated with Cura_SteamEngine 4.9.1
M140 S60
M105
M190 S60
M104 S200
M105
M109 S200
M82 ;absolute extrusion mode
G28 ; home all axes
 M117 Purge extruder
 G92 E0 ; reset extruder
 G1 Z1.0 F3000 ; move z up little to prevent scratching of surface
 G1 X2 Y20 Z0.3 F5000.0 ; move to start-line position
 G1 X2 Y200.0 Z0.3 F1500.0 E15 ; draw 1st line
 G1 X2 Y200.0 Z0.4 F5000.0 ; move to side a little
 G1 X2 Y20 Z0.4 F1500.0 E30 ; draw 2nd line
 G92 E0 ; reset extruder
 G1 Z1.0 F3000 ; move z up little to prevent scratching of surface
G92 E0
G92 E0
G1 F1500 E-2
;LAYER_COUNT:407
;LAYER:0
M107
;MESH:ladoX2.stl
G0 F6000 X110.92 Y177.453 Z0.2
;TYPE:WALL-INNER
G1 F1500 E0
G1 F1200 X110.701 Y177.454 E0.00801
G1 X101.175 Y177.499 E0.35654
G1 X100.736 Y174.355 E0.47268
G1 X98.226 Y157.048 E1.1125
G1 X102.393 Y153.697 E1.30813
G1 X114.944 Y143.571 E1.89814
G1 X116.758 Y141.306 E2.00431
G1 X128.499 Y126.77 E2.68794
G1 X133.858 Y127.348 E2.88514
G1 X149.936 Y129.062 E3.47671
G1 X152.819 Y128.745 E3.58282
G1 X171.345 Y126.769 E4.26446
G1 X174.716 Y130.959 E4.46121
G1 X184.853 Y143.519 E5.05172
G1 X187.119 Y145.334 E5.15794
G1 X201.622 Y157.048 E5.84001
G1 X201.077 Y160.828 E5.97974
G1 X198.684 Y177.03 E6.57894
G1 X190.018 Y177.072 E6.896
G1 X190.017 Y177.073 E6.89605
G1 X189.771 Y177.073 E6.90505
G1 X189.799 Y176.828 E6.9107
G1 X189.851 Y176.374 E6.92742
G1 X189.867 Y176.243 E6.93225
G1 X188.801 Y174.118 E7.01923
G1 X188.753 Y164.886 E7.357
G1 X188.719 Y164.299 E7.37851
G1 X188.623 Y163.658 E7.40222
G1 X188.471 Y163.004 E7.42679
G1 X188.266 Y162.342 E7.45214
G1 X188.017 Y161.689 E7.47771
G1 X187.724 Y161.051 E7.5034
G1 X187.394 Y160.445 E7.52864
G1 X187.033 Y159.877 E7.55327
G1 X186.641 Y159.357 E7.57709
G1 X186.322 Y159.008 E7.59439
G1 X185.607 Y157.929 E7.64175
G1 X181.334 Y154.869 E7.83403
G1 X167.955 Y141.63 E8.52266
G1 X167.516 Y141.239 E8.54417
G1 X166.996 Y140.855 E8.56782
G1 X166.424 Y140.497 E8.59251
G1 X165.813 Y140.175 E8.61777
G1 X165.172 Y139.888 E8.64347
G1 X164.515 Y139.645 E8.6691
G1 X163.852 Y139.45 E8.69438
G1 X163.196 Y139.305 E8.71896
G1 X162.555 Y139.214 E8.74265
G1 X162.082 Y139.192 E8.75997
G1 X160.89 Y138.95 E8.80447
G1 X160.81 Y138.933 E8.80746
G1 X155.631 Y139.79 E8.99952
G1 X136.804 Y139.89 E9.68834
G1 X136.217 Y139.925 E9.70985
G1 X135.578 Y140.021 E9.73349
G1 X134.921 Y140.173 E9.75817
G1 X134.259 Y140.378 E9.78352
G1 X133.606 Y140.627 E9.80909
G1 X132.97 Y140.919 E9.83469
G1 X132.361 Y141.25 E9.86005
G1 X131.792 Y141.613 E9.88474
G1 X131.277 Y142.003 E9.90838
G1 X130.929 Y142.319 E9.92558
G1 X129.845 Y143.037 E9.97315
G1 X126.786 Y147.309 E10.16538
G1 X113.548 Y160.687 E10.85396
G1 X113.156 Y161.127 E10.87552
G1 X112.773 Y161.65 E10.89923
G1 X112.416 Y162.219 E10.92381
G1 X112.092 Y162.831 E10.94914
G1 X111.806 Y163.472 E10.97482
G1 X111.563 Y164.128 E11.00042
G1 X111.368 Y164.791 E11.0257
G1 X111.222 Y165.448 E11.05032
G1 X111.132 Y166.091 E11.07408
G1 X111.11 Y166.562 E11.09133
G1 X110.879 Y167.701 E11.13385
G1 X110.869 Y167.746 E11.13554
G1 X110.919 Y177.234 E11.48267
G1 X110.92 Y177.453 E11.48786
G0 F6000 X111.362 Y177.891
G1 F1200 X101.205 Y177.939 E11.85947
G1 X101.21 Y177.98 E11.86098
G1 X100.773 Y177.982 E11.87287
G1 X98.761 Y177.996 E11.94648
G1 X89.691 Y178.057 E12.27832
G1 X89.427 Y178.059 E12.28798
G1 X89.429 Y177.636 E12.30346
G1 X89.44 Y176.057 E12.36123
G1 X89.718 Y176.059 E12.3714
G1 X89.688 Y177.637 E12.40671
G1 X98.759 Y177.738 E12.66304
G1 X100.512 Y177.786 E12.7272
G1 X100.513 Y177.787 E12.72725
G1 X100.771 Y177.793 E12.73669
G1 X100.736 Y177.537 E12.74254
G1 X100.3 Y174.417 E12.8578
G1 X97.792 Y157.112 E13.49754
G1 X97.755 Y156.862 E13.50678
G1 X102.117 Y153.354 E13.71158
G1 X114.631 Y143.258 E14.29984
G1 X116.416 Y141.03 E14.40429
G1 X128.308 Y126.307 E15.09671
G1 X133.905 Y126.911 E15.30267
G1 X149.936 Y128.619 E15.89251
G1 X152.772 Y128.307 E15.99689
G1 X171.537 Y126.306 E16.68732
G1 X175.059 Y130.683 E16.89287
G1 X185.166 Y143.206 E17.48164
G1 X187.395 Y144.992 E17.58614
G1 X202.093 Y156.863 E18.27737
G1 X201.512 Y160.892 E18.4263
G1 X199.114 Y177.131 E19.02686
G1 X199.113 Y177.132 E19.02691
G1 X199.077 Y177.385 E19.03626
G1 X199.332 Y177.384 E19.04206
G1 X199.334 Y177.383 E19.04214
G1 X207.452 Y177.29 E19.33917
G1 X210.194 Y177.231 E19.43951
G1 X210.233 Y175.398 E19.50659
G1 X210.451 Y175.398 E19.51457
G1 X210.451 Y177.231 E19.55085
G1 X210.451 Y177.532 E19.56044
G1 X210.194 Y177.532 E19.56587
G1 X207.452 Y177.526 E19.62723
G1 X199.077 Y177.509 E19.93364
G1 X198.685 Y177.508 E19.94798
G1 X198.689 Y177.47
G1 X189.277 Y177.515 E20.29233
G1 X189.415 Y176.323 E20.33623
G1 X188.409 Y174.315 E20.4184
G1 X188.362 Y174.222 E20.42221
G1 X188.313 Y164.9 E20.76327
G1 X188.281 Y164.345 E20.78361
G1 X188.19 Y163.741 E20.80596
G1 X188.046 Y163.119 E20.82932
G1 X187.85 Y162.486 E20.85356
G1 X187.611 Y161.859 E20.87811
G1 X187.33 Y161.248 E20.90272
G1 X187.015 Y160.668 E20.92687
G1 X186.671 Y160.128 E20.95029
G1 X186.302 Y159.639 E20.9727
G1 X185.974 Y159.28 E20.99049
G1 X185.285 Y158.239 E21.03617
G1 X181.051 Y155.207 E21.2267
G1 X167.654 Y141.951 E21.91623
G1 X167.238 Y141.581 E21.9366
G1 X166.748 Y141.219 E21.95888
G1 X166.204 Y140.879 E21.98235
G1 X165.62 Y140.571 E22.00651
G1 X165.006 Y140.296 E22.03112
G1 X164.376 Y140.063 E22.0557
G1 X163.742 Y139.876 E22.07988
G1 X163.118 Y139.738 E22.10326
G1 X162.514 Y139.653 E22.12558
G1 X162.031 Y139.631 E22.14327
G1 X160.802 Y139.38 E22.18916
G1 X155.668 Y140.23 E22.37955
G1 X136.818 Y140.33 E23.06921
G1 X136.263 Y140.363 E23.08955
G1 X135.66 Y140.454 E23.11186
G1 X135.036 Y140.598 E23.13529
G1 X134.403 Y140.794 E23.15954
G1 X133.776 Y141.033 E23.18409
G1 X133.167 Y141.313 E23.20861
G1 X132.585 Y141.629 E23.23284
G1 X132.044 Y141.974 E23.25631
G1 X131.558 Y142.342 E23.27862
G1 X131.224 Y142.644 E23.29509
G1 X131.197 Y142.669 E23.29644
G1 X130.156 Y143.359 E23.34213
G1 X127.124 Y147.592 E23.53263
G1 X113.869 Y160.989 E24.22213
G1 X113.498 Y161.404 E24.2425
G1 X113.137 Y161.897 E24.26486
G1 X112.797 Y162.439 E24.28826
G1 X112.488 Y163.024 E24.31247
G1 X112.214 Y163.638 E24.33707
G1 X111.981 Y164.267 E24.36161
G1 X111.794 Y164.901 E24.38579
G1 X111.655 Y165.526 E24.40922
G1 X111.571 Y166.131 E24.43157
G1 X111.549 Y166.613 E24.44922
G1 X111.309 Y167.789 E24.49313
G1 X111.362 Y177.891 E24.86273
G0 F6000 X111.804 Y178.329
;TYPE:WALL-OUTER
G1 F1200 X101.703 Y178.377 E25.23229
G1 X101.708 Y178.417 E25.23376
G1 X88.984 Y178.502 E25.6993
G1 X89.003 Y175.614 E25.80496
G1 X90.166 Y175.622 E25.84751
G1 X90.136 Y177.202 E25.90533
G1 X98.771 Y177.298 E26.22127
G1 X100.263 Y177.339 E26.27588
G1 X99.864 Y174.479 E26.38153
G1 X97.284 Y156.676 E27.03967
G1 X101.841 Y153.011 E27.25363
G1 X114.318 Y142.945 E27.84015
G1 X116.074 Y140.754 E27.94288
G1 X128.117 Y125.844 E28.64409
G1 X133.952 Y126.474 E28.85881
G1 X149.936 Y128.176 E29.44691
G1 X152.725 Y127.869 E29.54957
G1 X171.729 Y125.842 E30.24879
G1 X175.402 Y130.407 E30.46316
G1 X185.479 Y142.893 E31.05019
G1 X187.671 Y144.65 E31.15297
G1 X202.564 Y156.678 E31.85336
G1 X201.947 Y160.956 E32.01149
G1 X199.588 Y176.939 E32.60258
G1 X207.445 Y176.85 E32.89006
G1 X209.763 Y176.8 E32.97488
G1 X209.802 Y174.958 E33.04229
G1 X210.891 Y174.958 E33.08213
G1 X210.891 Y177.973 E33.19244
G1 X198.192 Y177.947 E33.65705
G1 X198.196 Y177.912 E33.65834
G1 X188.783 Y177.957 E34.00273
G1 X188.963 Y176.403 E34.05996
G1 X187.923 Y174.326 E34.14495
G1 X187.873 Y164.914 E34.4893
G1 X187.843 Y164.391 E34.50846
G1 X187.757 Y163.824 E34.52945
G1 X187.621 Y163.234 E34.5516
G1 X187.434 Y162.63 E34.57473
G1 X187.205 Y162.03 E34.59823
G1 X186.936 Y161.445 E34.62178
G1 X186.636 Y160.891 E34.64483
G1 X186.309 Y160.379 E34.66706
G1 X185.963 Y159.921 E34.68806
G1 X185.626 Y159.552 E34.70634
G1 X184.963 Y158.549 E34.75033
G1 X180.768 Y155.545 E34.93911
G1 X167.353 Y142.272 E35.62954
G1 X166.961 Y141.923 E35.64874
G1 X166.5 Y141.583 E35.6697
G1 X165.985 Y141.261 E35.69192
G1 X165.427 Y140.967 E35.715
G1 X164.84 Y140.704 E35.73853
G1 X164.237 Y140.481 E35.76205
G1 X163.632 Y140.302 E35.78514
G1 X163.04 Y140.171 E35.80732
G1 X162.473 Y140.092 E35.82826
G1 X161.974 Y140.068 E35.84654
G1 X160.794 Y139.827 E35.8906
G1 X155.705 Y140.67 E36.07933
G1 X136.832 Y140.77 E36.76983
G1 X136.309 Y140.801 E36.789
G1 X135.742 Y140.887 E36.80998
G1 X135.151 Y141.023 E36.83217
G1 X134.547 Y141.21 E36.8553
G1 X133.947 Y141.439 E36.87879
G1 X133.364 Y141.707 E36.90227
G1 X132.808 Y142.008 E36.9254
G1 X132.296 Y142.335 E36.94763
G1 X131.839 Y142.681 E36.9686
G1 X131.469 Y143.017 E36.98689
G1 X130.466 Y143.681 E37.03089
G1 X127.462 Y147.875 E37.21964
G1 X114.19 Y161.291 E37.91007
G1 X113.84 Y161.682 E37.92927
G1 X113.501 Y162.144 E37.95024
G1 X113.179 Y162.659 E37.97246
G1 X112.884 Y163.217 E37.99555
G1 X112.622 Y163.804 E38.01907
G1 X112.399 Y164.406 E38.04256
G1 X112.22 Y165.011 E38.06564
G1 X112.088 Y165.604 E38.08787
G1 X112.01 Y166.172 E38.10884
G1 X111.986 Y166.67 E38.12708
G1 X111.749 Y167.832 E38.17047
G1 X111.804 Y178.329 E38.55452
G0 F6000 X110.488 Y177.025
;TYPE:SKIN
G1 F1200 X101.549 Y177.067 E38.88157
G1 X101.162 Y174.294 E38.98401
G1 X98.687 Y157.229 E39.61488
G1 X102.663 Y154.032 E39.80154
G1 X115.251 Y143.876 E40.39329
G1 X117.094 Y141.575 E40.50115
G1 X128.686 Y127.223 E41.17611
G1 X133.811 Y127.776 E41.36471
G1 X149.936 Y129.494 E41.958
G1 X152.866 Y129.173 E42.06584
G1 X171.157 Y127.222 E42.73883
G1 X174.381 Y131.229 E42.92699
G1 X184.548 Y143.826 E43.51925
G1 X186.85 Y145.67 E43.62716
G1 X201.161 Y157.229 E44.3002
G1 X200.651 Y160.767 E44.43098
G1 X198.312 Y176.602 E45.01661
G1 X190.254 Y176.641 E45.31142
G1 X190.309 Y176.165 E45.32895
G1 X189.231 Y174.013 E45.41701
G1 X189.183 Y164.872 E45.75145
G1 X189.147 Y164.254 E45.7741
G1 X189.045 Y163.578 E45.79911
G1 X188.886 Y162.891 E45.82491
G1 X188.673 Y162.201 E45.85133
G1 X188.414 Y161.523 E45.87789
G1 X188.109 Y160.858 E45.90465
G1 X187.765 Y160.226 E45.93098
G1 X187.387 Y159.632 E45.95674
G1 X186.972 Y159.082 E45.98195
G1 X186.663 Y158.744 E45.9987
G1 X185.922 Y157.626 E46.04777
G1 X181.612 Y154.539 E46.24173
G1 X168.25 Y141.317 E46.92948
G1 X167.788 Y140.905 E46.95213
G1 X167.238 Y140.499 E46.97714
G1 X166.639 Y140.124 E47.00299
G1 X166.001 Y139.788 E47.02937
G1 X165.334 Y139.489 E47.05612
G1 X164.65 Y139.237 E47.08279
G1 X163.959 Y139.034 E47.10914
G1 X163.272 Y138.881 E47.13489
G1 X162.596 Y138.786 E47.15986
G1 X162.137 Y138.764 E47.17667
G1 X160.818 Y138.495 E47.22592
G1 X155.597 Y139.36 E47.41954
G1 X136.79 Y139.46 E48.10763
G1 X136.172 Y139.497 E48.13028
G1 X135.498 Y139.599 E48.15522
G1 X134.809 Y139.757 E48.18108
G1 X134.118 Y139.971 E48.20755
G1 X133.44 Y140.23 E48.2341
G1 X132.777 Y140.534 E48.26079
G1 X132.142 Y140.879 E48.28723
G1 X131.546 Y141.26 E48.31311
G1 X131.002 Y141.672 E48.33807
G1 X130.659 Y141.983 E48.35501
G1 X129.542 Y142.722 E48.40401
G1 X126.456 Y147.031 E48.59792
G1 X113.235 Y160.392 E49.28562
G1 X112.822 Y160.857 E49.30837
G1 X112.417 Y161.408 E49.33339
G1 X112.043 Y162.004 E49.35913
G1 X111.705 Y162.643 E49.38558
G1 X111.407 Y163.31 E49.41231
G1 X111.155 Y163.993 E49.43894
G1 X110.952 Y164.683 E49.46526
G1 X110.798 Y165.372 E49.49109
G1 X110.704 Y166.052 E49.5162
G1 X110.682 Y166.507 E49.53287
G1 X110.439 Y167.703 E49.57752
G1 X110.488 Y177.025 E49.91858
G1 F1500 E47.91858
G0 F6000 X110.499 Y179.22
G0 X102.693 Y179.244
G0 X102.215 Y176.886
G1 F1500 E49.91858
G1 F1200 X101.618 Y176.288 E49.9495
G0 F6000 X101.517 Y175.565
G1 F1200 X102.835 Y176.883 E50.01769
G0 F6000 X103.454 Y176.88
G1 F1200 X101.416 Y174.842 E50.12314
G0 F6000 X101.314 Y174.117
G1 F1200 X104.074 Y176.877 E50.26594
G0 F6000 X104.693 Y176.874
G1 F1200 X101.208 Y173.389 E50.44626
G0 F6000 X101.102 Y172.662
G1 F1200 X105.312 Y176.872 E50.66408
G0 F6000 X105.932 Y176.869
G1 F1200 X100.997 Y171.934 E50.91942
G0 F6000 X100.892 Y171.206
G1 F1200 X106.551 Y176.866 E51.21225
G0 F6000 X107.171 Y176.863
G1 F1200 X100.786 Y170.479 E51.54259
G0 F6000 X100.68 Y169.75
G1 F1200 X107.79 Y176.86 E51.91046
G0 F6000 X108.41 Y176.858
G1 F1200 X100.575 Y169.023 E52.31585
G0 F6000 X100.469 Y168.295
G1 F1200 X109.029 Y176.855 E52.75875
G0 F6000 X109.648 Y176.852
G1 F1200 X100.364 Y167.568 E53.23911
G0 F6000 X100.258 Y166.839
G1 F1200 X110.268 Y176.849 E53.75704
G0 F6000 X110.307 Y176.266
G1 F1200 X100.153 Y166.112 E54.28241
G0 F6000 X100.047 Y165.384
G1 F1200 X110.305 Y175.641 E54.81314
G0 F6000 X110.301 Y175.015
G1 F1200 X99.942 Y164.656 E55.34912
G0 F6000 X99.836 Y163.928
G1 F1200 X110.298 Y174.39 E55.89043
G0 F6000 X110.295 Y173.765
G1 F1200 X99.731 Y163.2 E56.43705
G0 F6000 X99.625 Y162.473
G1 F1200 X110.291 Y173.139 E56.98891
G0 F6000 X110.288 Y172.513
G1 F1200 X99.52 Y161.745 E57.54605
G0 F6000 X99.414 Y161.018
G1 F1200 X110.285 Y171.888 E58.1085
G0 F6000 X110.281 Y171.262
G1 F1200 X99.308 Y160.289 E58.67625
G0 F6000 X99.203 Y159.562
G1 F1200 X110.278 Y170.636 E59.24925
G0 F6000 X110.275 Y170.011
G1 F1200 X99.098 Y158.834 E59.82756
G0 F6000 X98.992 Y158.106
G1 F1200 X110.271 Y169.386 E60.41117
G0 F6000 X110.268 Y168.76
G1 F1200 X98.886 Y157.378 E61.00008
G0 F6000 X99.184 Y157.054
G1 F1200 X110.265 Y168.135 E61.57342
G0 F6000 X110.292 Y167.539
G1 F1200 X99.529 Y156.776 E62.1303
G0 F6000 X99.874 Y156.499
G1 F1200 X110.397 Y167.022 E62.67477
G0 F6000 X110.502 Y166.505
G1 F1200 X100.219 Y156.222 E63.20682
G0 F6000 X100.564 Y155.944
G1 F1200 X110.544 Y165.925 E63.72321
G0 F6000 X110.619 Y165.378
G1 F1200 X100.909 Y155.667 E64.22564
G0 F6000 X101.254 Y155.39
G1 F1200 X110.731 Y164.867 E64.71599
G0 F6000 X110.86 Y164.374
G1 F1200 X101.599 Y155.113 E65.19516
G0 F6000 X101.944 Y154.835
G1 F1200 X111.003 Y163.895 E65.6639
G0 F6000 X111.171 Y163.44
G1 F1200 X102.288 Y154.557 E66.12351
G0 F6000 X102.633 Y154.28
G1 F1200 X111.353 Y163 E66.57469
G0 F6000 X111.544 Y162.569
G1 F1200 X102.978 Y154.003 E67.0179
G0 F6000 X103.323 Y153.725
G1 F1200 X111.76 Y162.162 E67.45444
G0 F6000 X111.984 Y161.764
G1 F1200 X103.667 Y153.447 E67.88476
G0 F6000 X104.011 Y153.169
G1 F1200 X112.224 Y161.382 E68.30971
G0 F6000 X112.483 Y161.019
G1 F1200 X104.356 Y152.892 E68.7302
G0 F6000 X104.7 Y152.614
G1 F1200 X112.754 Y160.668 E69.14692
G0 F6000 X113.046 Y160.337
G1 F1200 X105.044 Y152.336 E69.56093
G0 F6000 X105.389 Y152.058
G1 F1200 X113.352 Y160.021 E69.97294
G0 F6000 X113.661 Y159.708
G1 F1200 X105.733 Y151.78 E70.38314
G0 F6000 X106.078 Y151.502
G1 F1200 X113.971 Y159.396 E70.79155
G0 F6000 X114.281 Y159.083
G1 F1200 X106.422 Y151.224 E71.19818
G0 F6000 X106.766 Y150.946
G1 F1200 X114.59 Y158.77 E71.603
G0 F6000 X114.899 Y158.457
G1 F1200 X107.111 Y150.668 E72.00598
G0 F6000 X107.455 Y150.391
G1 F1200 X115.209 Y158.145 E72.40718
G0 F6000 X115.519 Y157.832
G1 F1200 X107.799 Y150.113 E72.80659
G0 F6000 X108.144 Y149.835
G1 F1200 X115.828 Y157.519 E73.20416
G0 F6000 X116.138 Y157.206
G1 F1200 X108.488 Y149.557 E73.59995
G0 F6000 X108.832 Y149.279
G1 F1200 X116.447 Y156.894 E73.99396
G0 F6000 X116.756 Y156.581
G1 F1200 X109.177 Y149.002 E74.3861
G0 F6000 X109.522 Y148.724
G1 F1200 X117.066 Y156.268 E74.77643
G0 F6000 X117.376 Y155.955
G1 F1200 X109.866 Y148.446 E75.16498
G0 F6000 X110.211 Y148.168
G1 F1200 X117.685 Y155.643 E75.55171
G0 F6000 X117.994 Y155.33
G1 F1200 X110.555 Y147.89 E75.93664
G0 F6000 X110.899 Y147.612
G1 F1200 X118.304 Y155.017 E76.31978
G0 F6000 X118.614 Y154.705
G1 F1200 X111.244 Y147.334 E76.70113
G0 F6000 X111.588 Y147.056
