;FLAVOR:Marlin
;TIME:3224
;Filament used: 1.9663m
;Layer height: 0.2
;MINX:112.532
;MINY:118.776
;MINZ:0.2
;MAXX:187.476
;MAXY:181.184
;MAXZ:11.8
;Generated with Cura_SteamEngine 4.9.0
M140 S60
M105
M190 S60
M104 S200
M105
M109 S200
M82 ;absolute extrusion mode
G28 ; home all axes
 M117 Purge extruder
 G92 E0 ; reset extruder
 G1 Z1.0 F3000 ; move z up little to prevent scratching of surface
 G1 X2 Y20 Z0.3 F5000.0 ; move to start-line position
 G1 X2 Y200.0 Z0.3 F1500.0 E15 ; draw 1st line
 G1 X2 Y200.0 Z0.4 F5000.0 ; move to side a little
 G1 X2 Y20 Z0.4 F1500.0 E30 ; draw 2nd line
 G92 E0 ; reset extruder
 G1 Z1.0 F3000 ; move z up little to prevent scratching of surface
G92 E0
G92 E0
G1 F1500 E-2
;LAYER_COUNT:59
;LAYER:0
M107
G0 F6000 X123.409 Y127.063 Z0.2
;TYPE:SKIRT
G1 F1500 E0
G1 F1200 X124.105 Y126.401 E0.03514
G1 X124.854 Y125.799 E0.0703
G1 X125.559 Y125.318 E0.10152
G1 X126.292 Y124.858 E0.13319
G1 X127.546 Y124.093 E0.18693
G1 X128.152 Y123.735 E0.21268
G1 X128.429 Y123.577 E0.22435
G1 X128.758 Y123.398 E0.23805
G1 X129.337 Y123.097 E0.26192
G1 X129.868 Y122.83 E0.28367
G1 X130.496 Y122.522 E0.30926
G1 X131.078 Y122.256 E0.33267
G1 X131.864 Y121.925 E0.36387
G1 X132.533 Y121.654 E0.39028
G1 X133.145 Y121.415 E0.41432
G1 X133.52 Y121.275 E0.42896
G1 X133.837 Y121.167 E0.44122
G1 X134.526 Y120.942 E0.46773
G1 X135.393 Y120.672 E0.50096
G1 X136.084 Y120.467 E0.52733
G1 X136.496 Y120.352 E0.54298
G1 X136.801 Y120.274 E0.5545
G1 X137.365 Y120.139 E0.57571
G1 X138.383 Y119.907 E0.61391
G1 X139.178 Y119.737 E0.64366
G1 X139.517 Y119.67 E0.6563
G1 X139.825 Y119.614 E0.66775
G1 X140.134 Y119.562 E0.67922
G1 X141.596 Y119.337 E0.73333
G1 X142.323 Y119.236 E0.76019
G1 X142.689 Y119.191 E0.77368
G1 X143.83 Y119.071 E0.81565
G1 X144.054 Y119.05 E0.82389
G1 X145.397 Y118.936 E0.8732
G1 X146.022 Y118.892 E0.89612
G1 X146.352 Y118.874 E0.90821
G1 X147.363 Y118.833 E0.94523
G1 X149.007 Y118.789 E1.0054
G1 X150.035 Y118.776 E1.04301
G1 X150.308 Y118.776 E1.053
G1 X150.782 Y118.782 E1.07034
G1 X152.701 Y118.828 E1.14057
G1 X153.589 Y118.862 E1.17309
G1 X153.881 Y118.877 E1.18378
G1 X154.722 Y118.933 E1.21462
G1 X156.249 Y119.055 E1.27067
G1 X156.813 Y119.108 E1.29139
G1 X157.167 Y119.146 E1.30442
G1 X158.205 Y119.276 E1.34269
G1 X159.311 Y119.432 E1.38355
G1 X160.216 Y119.574 E1.41707
G1 X160.509 Y119.625 E1.42795
G1 X160.779 Y119.675 E1.438
G1 X161.138 Y119.747 E1.45139
G1 X162.426 Y120.028 E1.49962
G1 X163.328 Y120.239 E1.53352
G1 X163.938 Y120.4 E1.5566
G1 X164.609 Y120.597 E1.58218
G1 X165.553 Y120.887 E1.61831
G1 X166.134 Y121.075 E1.64066
G1 X166.765 Y121.3 E1.66517
G1 X167.626 Y121.635 E1.69897
G1 X168.273 Y121.898 E1.72452
G1 X168.832 Y122.135 E1.74673
G1 X169.484 Y122.436 E1.77301
G1 X170.606 Y122.998 E1.81892
G1 X170.98 Y123.195 E1.83438
G1 X171.466 Y123.46 E1.85463
G1 X172.042 Y123.796 E1.87903
G1 X172.943 Y124.357 E1.91786
G1 X173.135 Y124.479 E1.92619
G1 X174.176 Y125.158 E1.97166
G1 X174.754 Y125.546 E1.99713
G1 X175.528 Y126.114 E2.03225
G1 X176.253 Y126.744 E2.06739
G1 X176.923 Y127.433 E2.10255
G1 X177.533 Y128.175 E2.1377
G1 X178.079 Y128.965 E2.17283
G1 X178.558 Y129.798 E2.20799
G1 X178.966 Y130.668 E2.24314
G1 X179.3 Y131.569 E2.2783
G1 X179.558 Y132.494 E2.31343
G1 X179.738 Y133.437 E2.34856
G1 X179.801 Y133.943 E2.36721
G1 X179.882 Y134.739 E2.39649
G1 X179.936 Y135.348 E2.41885
G1 X180.207 Y137.962 E2.515
G1 X180.535 Y140.439 E2.60642
G1 X180.935 Y142.926 E2.69858
G1 X181.4 Y145.373 E2.7897
G1 X181.941 Y147.834 E2.88189
G1 X182.533 Y150.207 E2.97137
G1 X183.216 Y152.646 E3.06404
G1 X184.003 Y155.179 E3.16108
G1 X184.194 Y155.766 E3.18367
G1 X184.787 Y157.525 E3.25158
G1 X186.66 Y162.914 E3.46031
G1 X186.89 Y163.607 E3.48703
G1 X187.154 Y164.53 E3.52215
G1 X187.341 Y165.473 E3.55732
G1 X187.448 Y166.427 E3.59244
G1 X187.476 Y167.388 E3.62762
G1 X187.424 Y168.347 E3.66276
G1 X187.292 Y169.298 E3.69788
G1 X187.082 Y170.236 E3.73305
G1 X186.794 Y171.152 E3.76818
G1 X186.431 Y172.042 E3.80335
G1 X185.996 Y172.898 E3.83848
G1 X185.491 Y173.715 E3.87362
G1 X184.919 Y174.487 E3.90877
G1 X184.286 Y175.209 E3.9439
G1 X183.594 Y175.876 E3.97906
G1 X182.849 Y176.483 E4.01422
G1 X182.057 Y177.026 E4.04935
G1 X181.222 Y177.501 E4.0845
G1 X180.35 Y177.905 E4.11966
G1 X179.448 Y178.235 E4.1548
G1 X178.522 Y178.489 E4.18993
G1 X177.577 Y178.665 E4.2251
G1 X176.622 Y178.762 E4.26022
G1 X175.558 Y178.776 E4.29915
G1 X175.009 Y178.758 E4.31925
G1 X172.45 Y178.713 E4.41288
G1 X169.952 Y178.738 E4.50428
G1 X167.461 Y178.834 E4.59548
G1 X164.975 Y179.001 E4.68664
G1 X162.467 Y179.241 E4.77882
G1 X159.987 Y179.549 E4.87025
G1 X157.496 Y179.929 E4.96244
G1 X155.023 Y180.38 E5.05441
G1 X153.278 Y180.741 E5.11961
G1 X152.862 Y180.831 E5.13518
G1 X152.194 Y180.965 E5.1601
G1 X151.245 Y181.114 E5.19525
G1 X150.287 Y181.184 E5.23039
G1 X149.326 Y181.175 E5.26555
G1 X148.252 Y181.068 E5.30504
G1 X147.214 Y180.916 E5.34342
G1 X146.82 Y180.852 E5.35803
G1 X146.056 Y180.713 E5.38644
G1 X143.482 Y180.204 E5.48243
G1 X141.015 Y179.789 E5.57396
G1 X138.548 Y179.445 E5.66509
G1 X136.05 Y179.169 E5.75704
G1 X133.549 Y178.963 E5.84885
G1 X131.063 Y178.829 E5.93994
G1 X128.591 Y178.766 E6.03041
G1 X124.787 Y178.802 E6.16959
G1 X124.394 Y178.813 E6.18397
G1 X123.433 Y178.8 E6.21913
G1 X122.477 Y178.708 E6.25427
G1 X121.532 Y178.535 E6.28942
G1 X120.604 Y178.285 E6.32458
G1 X119.701 Y177.959 E6.35971
G1 X118.828 Y177.559 E6.39484
G1 X117.991 Y177.087 E6.43
G1 X117.196 Y176.547 E6.46516
G1 X116.449 Y175.944 E6.50028
G1 X115.755 Y175.28 E6.53542
G1 X115.118 Y174.56 E6.57059
G1 X114.543 Y173.791 E6.60572
G1 X114.035 Y172.976 E6.64086
G1 X113.596 Y172.121 E6.67602
G1 X113.229 Y171.233 E6.71118
G1 X112.938 Y170.318 E6.7463
G1 X112.723 Y169.382 E6.78144
G1 X112.588 Y168.431 E6.81658
G1 X112.532 Y167.472 E6.85173
G1 X112.556 Y166.511 E6.8869
G1 X112.659 Y165.556 E6.92204
G1 X112.842 Y164.613 E6.95719
G1 X113.12 Y163.634 E6.99442
G1 X113.384 Y162.845 E7.02486
G1 X115.264 Y157.438 E7.2343
G1 X115.826 Y155.766 E7.29883
G1 X116.057 Y155.057 E7.32611
G1 X116.81 Y152.629 E7.41912
G1 X117.492 Y150.186 E7.51192
G1 X118.096 Y147.762 E7.60331
G1 X118.632 Y145.322 E7.69471
G1 X119.096 Y142.871 E7.78598
G1 X119.491 Y140.405 E7.87735
G1 X119.819 Y137.914 E7.96927
G1 X120.076 Y135.431 E8.0606
G1 X120.151 Y134.611 E8.09073
G1 X120.224 Y133.903 E8.11677
G1 X120.362 Y132.953 E8.15189
G1 X120.579 Y132.017 E8.18704
G1 X120.873 Y131.102 E8.2222
G1 X121.242 Y130.215 E8.25735
G1 X121.683 Y129.362 E8.29248
G1 X122.194 Y128.549 E8.32761
G1 X122.771 Y127.78 E8.36279
G1 X123.409 Y127.063 E8.3979
G0 F6000 X123.827 Y127.265
G1 F1200 X124.519 Y126.625 E8.43239
G1 X125.262 Y126.047 E8.46683
G1 X125.794 Y125.691 E8.49025
G1 X126.522 Y125.234 E8.5217
G1 X127.77 Y124.472 E8.57519
G1 X128.376 Y124.114 E8.60094
G1 X128.645 Y123.96 E8.61228
G1 X128.962 Y123.788 E8.62548
G1 X129.535 Y123.49 E8.64911
G1 X130.062 Y123.225 E8.67069
G1 X130.69 Y122.917 E8.69628
G1 X131.25 Y122.662 E8.71879
G1 X132.03 Y122.332 E8.74978
G1 X132.693 Y122.063 E8.77596
G1 X133.305 Y121.824 E8.79999
G1 X133.76 Y121.658 E8.81771
G1 X133.974 Y121.585 E8.82599
G1 X134.657 Y121.362 E8.85227
G1 X135.518 Y121.093 E8.88528
G1 X136.209 Y120.888 E8.91165
G1 X136.61 Y120.777 E8.92687
G1 X136.904 Y120.702 E8.93797
G1 X137.463 Y120.568 E8.959
G1 X138.635 Y120.302 E9.00297
G1 X139.269 Y120.167 E9.02669
G1 X139.595 Y120.103 E9.03884
G1 X139.903 Y120.047 E9.05029
G1 X140.201 Y119.997 E9.06135
G1 X141.663 Y119.772 E9.11547
G1 X142.383 Y119.672 E9.14206
G1 X142.735 Y119.629 E9.15504
G1 X143.876 Y119.509 E9.19701
G1 X144.092 Y119.488 E9.20495
G1 X145.427 Y119.375 E9.25397
G1 X146.052 Y119.331 E9.27689
G1 X146.37 Y119.314 E9.28854
G1 X147.375 Y119.273 E9.32534
G1 X149.186 Y119.226 E9.39162
G1 X150.04 Y119.216 E9.42287
G1 X150.303 Y119.216 E9.43249
G1 X150.771 Y119.222 E9.44961
G1 X152.69 Y119.268 E9.51984
G1 X153.572 Y119.302 E9.55214
G1 X153.853 Y119.316 E9.56243
G1 X154.688 Y119.371 E9.59305
G1 X156.043 Y119.478 E9.64277
G1 X156.772 Y119.546 E9.66956
G1 X157.112 Y119.583 E9.68207
G1 X158.337 Y119.738 E9.72725
G1 X159.422 Y119.894 E9.76735
G1 X160.147 Y120.009 E9.79421
G1 X160.429 Y120.058 E9.80468
G1 X160.699 Y120.108 E9.81473
G1 X161.044 Y120.177 E9.8276
G1 X162.332 Y120.458 E9.87583
G1 X163.227 Y120.667 E9.90946
G1 X163.815 Y120.822 E9.9317
G1 X164.48 Y121.018 E9.95707
G1 X165.417 Y121.306 E9.99293
G1 X165.998 Y121.494 E10.01527
G1 X166.606 Y121.71 E10.03888
G1 X167.635 Y122.112 E10.0793
G1 X168.101 Y122.304 E10.09774
G1 X168.66 Y122.541 E10.11995
G1 X169.287 Y122.83 E10.14521
G1 X170.404 Y123.389 E10.19091
G1 X170.77 Y123.582 E10.20605
G1 X171.256 Y123.847 E10.2263
G1 X171.809 Y124.169 E10.24971
G1 X172.71 Y124.73 E10.28854
G1 X172.895 Y124.848 E10.29657
G1 X173.931 Y125.523 E10.34181
G1 X174.509 Y125.911 E10.36728
G1 X175.268 Y126.469 E10.40175
G1 X175.977 Y127.089 E10.43621
G1 X176.631 Y127.767 E10.47067
G1 X177.225 Y128.498 E10.50513
G1 X177.755 Y129.277 E10.5396
G1 X178.217 Y130.098 E10.57407
G1 X178.608 Y130.955 E10.60853
G1 X178.925 Y131.843 E10.64303
G1 X179.165 Y132.754 E10.6775
G1 X179.363 Y133.988 E10.72322
G1 X179.444 Y134.778 E10.75228
G1 X179.499 Y135.393 E10.77487
G1 X179.772 Y138.032 E10.87193
G1 X180.098 Y140.495 E10.96283
G1 X180.503 Y143.005 E11.05585
G1 X180.972 Y145.476 E11.14787
G1 X181.511 Y147.928 E11.23972
G1 X182.111 Y150.334 E11.33044
G1 X182.796 Y152.779 E11.42334
G1 X183.568 Y155.264 E11.51854
G1 X183.777 Y155.906 E11.54324
G1 X184.352 Y157.611 E11.60907
G1 X186.192 Y162.904 E11.81409
G1 X186.472 Y163.746 E11.84656
G1 X186.73 Y164.652 E11.88102
G1 X186.911 Y165.576 E11.91547
G1 X187.013 Y166.513 E11.94995
G1 X187.035 Y167.455 E11.98443
G1 X186.977 Y168.395 E12.01888
G1 X186.839 Y169.327 E12.05335
G1 X186.623 Y170.244 E12.08782
G1 X186.33 Y171.139 E12.12227
G1 X185.962 Y172.007 E12.15677
G1 X185.522 Y172.84 E12.19123
G1 X185.013 Y173.632 E12.22568
G1 X184.438 Y174.379 E12.26017
G1 X183.803 Y175.074 E12.29461
G1 X183.11 Y175.713 E12.3291
G1 X182.366 Y176.291 E12.36357
G1 X181.575 Y176.803 E12.39804
G1 X180.744 Y177.247 E12.43251
G1 X179.879 Y177.619 E12.46696
G1 X178.984 Y177.915 E12.50145
G1 X178.068 Y178.135 E12.53591
G1 X177.137 Y178.277 E12.57037
G1 X176.197 Y178.339 E12.60484
G1 X175.573 Y178.336 E12.62767
G1 X175.032 Y178.318 E12.64747
G1 X172.454 Y178.273 E12.7418
G1 X169.967 Y178.298 E12.8328
G1 X167.415 Y178.397 E12.92624
G1 X164.941 Y178.562 E13.01695
G1 X162.405 Y178.805 E13.11016
G1 X159.933 Y179.112 E13.20129
G1 X157.422 Y179.495 E13.29422
G1 X154.933 Y179.949 E13.38679
G1 X153.198 Y180.308 E13.45161
G1 X152.775 Y180.399 E13.46744
G1 X152.107 Y180.533 E13.49237
G1 X151.176 Y180.679 E13.52685
G1 X150.237 Y180.746 E13.56129
G1 X149.295 Y180.732 E13.59576
G1 X148.316 Y180.633 E13.63176
G1 X147.278 Y180.481 E13.67014
G1 X146.899 Y180.419 E13.68419
G1 X145.966 Y180.248 E13.71889
G1 X143.541 Y179.768 E13.80933
G1 X141.082 Y179.354 E13.90057
G1 X138.615 Y179.01 E13.9917
G1 X136.101 Y178.732 E14.08423
G1 X133.573 Y178.524 E14.17704
G1 X131.063 Y178.389 E14.269
G1 X128.627 Y178.327 E14.35815
G1 X124.77 Y178.363 E14.49927
G1 X124.381 Y178.374 E14.51351
G1 X123.439 Y178.36 E14.54798
G1 X122.502 Y178.267 E14.58243
G1 X121.576 Y178.094 E14.61689
G1 X120.667 Y177.844 E14.65138
G1 X119.784 Y177.517 E14.68583
G1 X118.931 Y177.117 E14.7203
G1 X118.115 Y176.645 E14.75479
G1 X117.342 Y176.107 E14.78925
G1 X116.618 Y175.504 E14.82372
G1 X115.947 Y174.843 E14.85818
G1 X115.335 Y174.127 E14.89264
G1 X114.785 Y173.361 E14.92714
G1 X114.303 Y172.552 E14.9616
G1 X113.891 Y171.705 E14.99606
G1 X113.552 Y170.826 E15.03052
G1 X113.289 Y169.921 E15.065
G1 X113.104 Y168.997 E15.09948
G1 X112.998 Y168.061 E15.13394
G1 X112.971 Y167.119 E15.16842
G1 X113.025 Y166.179 E15.20287
G1 X113.158 Y165.246 E15.23735
G1 X113.369 Y164.328 E15.27181
G1 X113.538 Y163.773 E15.29304
G1 X113.8 Y162.99 E15.32325
G1 X115.67 Y157.611 E15.5316
G1 X116.272 Y155.82 E15.60072
G1 X116.455 Y155.255 E15.62245
G1 X117.236 Y152.738 E15.71887
G1 X117.916 Y150.304 E15.81133
G1 X118.518 Y147.89 E15.90236
G1 X119.065 Y145.399 E15.99566
G1 X119.529 Y142.944 E16.08707
G1 X119.928 Y140.46 E16.17912
G1 X120.253 Y137.984 E16.27048
G1 X120.517 Y135.441 E16.36402
G1 X120.589 Y134.657 E16.39283
G1 X120.662 Y133.949 E16.41887
G1 X120.798 Y133.016 E16.45336
G1 X121.013 Y132.099 E16.48782
G1 X121.305 Y131.203 E16.5223
G1 X121.671 Y130.335 E16.55676
G1 X122.11 Y129.502 E16.59121
G1 X122.619 Y128.709 E16.62569
G1 X123.192 Y127.961 E16.66016
G1 X123.827 Y127.265 E16.69463
G0 F6000 X124.244 Y127.471
G1 F1200 X124.931 Y126.854 E16.72841
G1 X126.028 Y126.063 E16.77789
G1 X126.751 Y125.609 E16.80913
G1 X127.855 Y124.934 E16.85647
G1 X128.6 Y124.493 E16.88815
G1 X128.861 Y124.344 E16.89914
G1 X129.165 Y124.178 E16.91181
G1 X129.734 Y123.883 E16.93526
G1 X130.256 Y123.62 E16.95665
G1 X130.884 Y123.312 E16.98224
G1 X131.421 Y123.067 E17.00383
G1 X132.196 Y122.74 E17.03461
G1 X132.853 Y122.473 E17.06055
G1 X133.465 Y122.234 E17.08459
G1 X133.906 Y122.073 E17.10177
G1 X134.111 Y122.003 E17.10969
G1 X134.789 Y121.782 E17.13578
G1 X135.643 Y121.515 E17.16852
G1 X136.334 Y121.31 E17.19489
G1 X136.725 Y121.202 E17.20973
G1 X137.006 Y121.13 E17.22034
G1 X137.56 Y120.997 E17.24119
G1 X138.578 Y120.765 E17.27939
G1 X139.361 Y120.598 E17.30868
G1 X139.674 Y120.536 E17.32035
G1 X139.982 Y120.48 E17.33181
G1 X140.268 Y120.432 E17.34242
G1 X141.73 Y120.207 E17.39653
G1 X142.443 Y120.108 E17.42287
G1 X142.781 Y120.066 E17.43533
G1 X143.922 Y119.946 E17.47731
G1 X145.299 Y119.827 E17.52787
G1 X145.458 Y119.814 E17.53371
G1 X146.083 Y119.77 E17.55663
G1 X146.388 Y119.753 E17.56781
G1 X147.387 Y119.713 E17.60439
G1 X149.191 Y119.666 E17.67041
G1 X150.045 Y119.656 E17.70166
G1 X150.297 Y119.656 E17.71088
G1 X150.76 Y119.662 E17.72782
G1 X152.843 Y119.713 E17.80405
G1 X153.554 Y119.741 E17.83008
G1 X153.824 Y119.755 E17.83998
G1 X154.653 Y119.81 E17.87037
G1 X156.166 Y119.931 E17.9259
G1 X156.73 Y119.984 E17.94663
G1 X157.058 Y120.02 E17.9587
G1 X158.275 Y120.174 E18.00358
G1 X159.353 Y120.329 E18.04343
G1 X160.078 Y120.444 E18.07028
G1 X160.349 Y120.49 E18.08034
G1 X160.619 Y120.54 E18.09039
G1 X160.95 Y120.607 E18.10274
G1 X162.403 Y120.925 E18.15716
G1 X163.127 Y121.095 E18.18437
G1 X163.691 Y121.244 E18.20571
G1 X164.351 Y121.439 E18.23089
G1 X165.282 Y121.725 E18.26652
G1 X165.863 Y121.913 E18.28886
G1 X166.446 Y122.12 E18.3115
G1 X167.307 Y122.455 E18.3453
G1 X167.795 Y122.653 E18.36457
G1 X168.488 Y122.946 E18.39209
G1 X169.09 Y123.223 E18.41634
G1 X170.057 Y123.706 E18.45589
G1 X170.363 Y123.864 E18.46849
G1 X170.559 Y123.968 E18.4766
G1 X171.045 Y124.233 E18.49686
G1 X171.576 Y124.543 E18.51935
G1 X172.477 Y125.104 E18.55818
G1 X172.655 Y125.217 E18.5659
G1 X173.685 Y125.888 E18.61087
G1 X174.263 Y126.276 E18.63634
G1 X175.007 Y126.824 E18.67015
G1 X175.7 Y127.433 E18.7039
G1 X176.338 Y128.1 E18.73767
G1 X176.916 Y128.82 E18.77145
G1 X177.43 Y129.588 E18.80526
G1 X177.875 Y130.397 E18.83904
G1 X178.248 Y131.241 E18.8728
G1 X178.547 Y132.114 E18.90656
G1 X178.77 Y133.01 E18.94034
G1 X178.926 Y134.033 E18.9782
G1 X179.006 Y134.817 E19.00704
G1 X179.068 Y135.516 E19.03271
G1 X179.333 Y138.064 E19.12643
G1 X179.667 Y140.585 E19.21947
G1 X180.064 Y143.05 E19.31082
G1 X180.539 Y145.553 E19.40403
G1 X181.082 Y148.023 E19.49656
G1 X181.688 Y150.453 E19.58818
G1 X182.38 Y152.922 E19.682
G1 X183.14 Y155.371 E19.77581
G1 X183.392 Y156.141 E19.80545
G1 X183.936 Y157.756 E19.8678
G1 X185.824 Y163.191 E20.0783
G1 X186.054 Y163.884 E20.10502
